%
(Header)
(Generated by gcodetools from Inkscape.)
(Using default header. To add your own header create file "header" in the output dir.)
M3
(Header end.)
G21 (All units in mm)

(Start cutting path id: path1891)
(Change tool to Default tool)

G00 Z15.000000
G00 X125.750222 Y115.362910

G01 Z11.000000 F4000.0(Penetrate)
G01 X155.648140 Y115.362910 Z11.000000 F4000.000000
G03 X155.400685 Y118.201847 Z11.000000 I-16.408636 J-0.000000
G03 X154.616565 Y119.503331 Z11.000000 I-2.078057 J-0.365040
G03 X153.132382 Y120.127493 Z11.000000 I-1.905335 J-2.453973
G03 X148.305950 Y120.456140 Z11.000000 I-4.826432 J-35.275640
G02 X149.445565 Y123.210860 Z11.000000 I20.072988 J-6.691016
G02 X151.892728 Y127.488621 Z11.000000 I38.796563 J-19.355352
G02 X154.810513 Y131.234885 Z11.000000 I23.385382 J-15.204360
G02 X156.541100 Y131.991030 Z11.000000 I1.730587 J-1.602323
G02 X158.949342 Y131.297556 Z11.000000 I0.000000 J-4.528315
G02 X161.468970 Y126.739990 Z11.000000 I-2.862106 J-4.557566
G03 X162.736623 Y122.262500 Z11.000000 I8.541318 J0.000000
G03 X166.663666 Y117.432850 Z11.000000 I20.307140 J12.500577
G03 X171.239350 Y114.554455 Z11.000000 I9.547649 J10.101462
G03 X173.639800 Y115.362910 Z11.000000 I0.711122 J1.856462
G03 X172.906860 Y120.816349 Z11.000000 I-3.677902 J2.281664
G02 X167.554380 Y133.089990 Z11.000000 I11.395954 J12.273641
G02 X174.588976 Y150.199969 Z11.000000 I24.325272 J0.000000
G03 X178.541240 Y159.812910 Z11.000000 I-9.714463 J9.612941
G03 X177.688824 Y165.521250 Z11.000000 I-19.539615 J-0.000000
G02 X177.079380 Y169.602490 Z11.000000 I13.360617 J4.081240
G02 X179.270605 Y174.425511 Z11.000000 I6.403496 J0.000000
G03 X180.627190 Y178.458010 Z11.000000 I-2.775774 J3.178242
G02 X179.875748 Y182.378195 Z11.000000 I135.104763 J27.929722
G02 X179.226770 Y187.081040 Z11.000000 I61.868238 J10.933823
G03 X178.594974 Y190.424022 Z11.000000 I-19.380977 J-1.931653
G03 X176.351650 Y192.051640 Z11.000000 I-2.151200 J-0.605189
G03 X172.909247 Y189.849248 Z11.000000 I0.167229 J-4.052868
G02 X167.554380 Y186.271240 Z11.000000 I-5.890574 J3.019800
G02 X160.090572 Y188.952146 Z11.000000 I-0.776838 J9.567540
G03 X157.136420 Y189.611600 Z11.000000 I-2.013596 J-2.073719
G03 X155.643909 Y187.280409 Z11.000000 I0.725320 J-2.107751
G03 X156.971050 Y180.714990 Z11.000000 I33.698789 J3.395067
G02 X159.245696 Y172.744385 Z11.000000 I-193.145566 J-59.429625
G02 X155.648140 Y167.221240 Z11.000000 I-4.300086 J-1.132320
G03 X145.692441 Y165.125487 Z11.000000 I16.467445 J-102.921957
G03 X129.454389 Y154.256660 Z11.000000 I7.564843 J-28.866148
G03 X121.453872 Y134.156115 Z11.000000 I32.514303 J-24.583977
G02 X118.341889 Y126.739990 Z11.000000 I-14.114968 J1.561984
G02 X102.612429 Y116.191431 Z11.000000 I-25.181185 J20.547115
G03 X96.507118 Y107.954570 Z11.000000 I2.503646 J-8.236861
G03 X97.765682 Y104.604996 Z11.000000 I5.086603 J0.000000
G03 X100.842994 Y102.073650 Z11.000000 I9.205904 J8.055263
G03 X104.793089 Y100.587206 Z11.000000 I6.442733 J11.129259
G03 X106.171057 Y101.075410 Z11.000000 I0.277633 J1.405151
G03 X105.955362 Y102.345896 Z11.000000 I-0.651528 J0.542940
G02 X102.803924 Y105.528216 Z11.000000 I4.641342 J7.747889
G02 X102.833726 Y107.832963 Z11.000000 I1.924786 J1.127677
G02 X108.987930 Y112.981660 Z11.000000 I10.889945 J-6.764292
G02 X121.429085 Y116.592554 Z11.000000 I24.989940 J-62.863446
G02 X125.750222 Y115.362910 Z11.000000 I0.931446 J-4.934125
G01 X125.750222 Y115.362910 Z11.000000
G00 Z15.000000

(End cutting path id: path1891)


(Footer)
M5
G00 X0.0000 Y0.0000
M2
(Using default footer. To add your own footer create file "footer" in the output dir.)
(end)
%