
; ### Ellis' Pressure Advance / Linear Advance Calibration Tool ###
;
; Original Marlin linear advance calibration tool by Sineos [https://github.com/Sineos]
; Heavily modified/rewritten by Andrew Ellis [https://github.com/AndrewEllis93]
;
; -------------------------------------------
; Generated: Tue Sep 05 2023 16:56:52 GMT+0200 (Central European Summer Time)
; -------------------------------------------
;
; Advanced Mode: false
;
; Printer:
;  - Firmware: marlin1_1_9
;  - Bed Shape: Rect
;  - Bed Size X: 200 mm
;  - Bed Size Y: 200 mm
;  - Origin Bed Center: false
;  - Travel Speed: 120 mm/s
;  - Nozzle Diameter: 0.4 mm
;  - Filament Diameter: 1.75 mm
;  - Extrusion Multiplier: 0.98
;
; Retraction / Z Hop:
;  - Retraction Distance: 0.5 mm
;  - Retract Speed: 35 mm/s
;  - Unretract Speed: 35 mm/s
;  - Z Hop Enable: true
;  - Z Hop Height: 0.1mm
;
; First Layer Settings:
;  - First Layer Height: 0.25 mm
;  - First Layer Printing Speed: 30 mm/s
;  - First Layer Fan Speed: 0%
;  - Anchor Option: anchor_frame
;
; Print Settings:
;  - Layer Height: 0.2 mm
;  - Print Speed: 100 mm/s
;  - Acceleration: Disabled
;  - Fan Speed: 100%
;
; Pressure Advance Stepping:
;  - LA Start Value: 0
;  - LA End Value: 0.08
;  - LA Increment: 0.005
;
; Start / End G-code:
;  - Hotend Temp: 200C
;  - Bed Temp: 60C
;  - Don't Add G28: false
;  - Don't Add Heating G-Codes: false
;
; Calculated Values:
;  - Print Size X: 84.72 mm
;  - Print Size Y: 53.99 mm
;  - Number of Patterns to Print: 17
;  - LA Values: 0, 0.005, 0.01, 0.015, 0.02, 0.025, 0.03, 0.035, 0.04, 0.045, 0.05, 0.055, 0.06, 0.065, 0.07, 0.075, 0.08
;
; Prepare printing
;
G28                 ; Home all axes
G90                 ; Absolute XYZ
G1 Z5 F100          ; Z raise
M190 S60    ; Set & wait for bed temp
M109 S200 ; Set & wait for hotend temp
;G29                ; Auto bed leveling
G21 ; Millimeter units
G90 ; Absolute XYZ
M83 ; Relative E
G92 E0 ; Reset extruder distance
;
;  Begin printing
;
M106 S0 ; Set fan speed
G1 E-0.5 F2100 ; Retract
G0 Z5 F7200 ; Z raise
G0 X57.6417 Y73.0068 F7200 ; Move to start position
G0 Z0.25 F7200 ; Move to start layer height
G1 E0.5 F2100 ; Un-retract
M900 K0 ; Set linear advance k factor to start value
M117 LA 0
G1 X57.6417 Y115.4332 E2.1882 F1800 ; Draw perimeter (up)
G1 X142.3583 Y115.4332 E4.36937 F1800 ; Draw perimeter (right)
G1 X142.3583 Y73.0068 E2.1882 F1800 ; Draw perimeter (down)
G1 X57.6417 Y73.0068 E4.36937 F1800 ; Draw perimeter (left)
G0 X58.148 Y73.5131 F7200 ; Step inwards to print next perimeter
G1 X58.148 Y114.9269 E2.13597 F1800 ; Draw perimeter (up)
G1 X141.852 Y114.9269 E4.31714 F1800 ; Draw perimeter (right)
G1 X141.852 Y73.5131 E2.13597 F1800 ; Draw perimeter (down)
G1 X58.148 Y73.5131 E4.31714 F1800 ; Draw perimeter (left)
G0 X58.6544 Y74.0195 F7200 ; Step inwards to print next perimeter
G1 X58.6544 Y114.4205 E2.08374 F1800 ; Draw perimeter (up)
G1 X141.3456 Y114.4205 E4.26491 F1800 ; Draw perimeter (right)
G1 X141.3456 Y74.0195 E2.08374 F1800 ; Draw perimeter (down)
G1 X58.6544 Y74.0195 E4.26491 F1800 ; Draw perimeter (left)
G0 X59.1607 Y74.5258 F7200 ; Step inwards to print next perimeter
G1 X59.1607 Y113.9142 E2.0315 F1800 ; Draw perimeter (up)
G1 X140.8393 Y113.9142 E4.21268 F1800 ; Draw perimeter (right)
G1 X140.8393 Y74.5258 E2.0315 F1800 ; Draw perimeter (down)
G1 X59.1607 Y74.5258 E4.21268 F1800 ; Draw perimeter (left)
G1 E-0.5 F2100 ; Retract
G1 Z0.35 F7200 ; Z hop
G0 X57.6417 Y115.9396 F7200 ; Move to box start
G1 Z0.25 F7200 ; Z hop return
G1 E0.5 F2100 ; Un-retract
G1 X57.6417 Y127.4459 E0.59346 F1800 ; Draw perimeter (up)
G1 X121.8962 Y127.4459 E3.31401 F1800 ; Draw perimeter (right)
G1 X121.8962 Y115.9396 E0.59346 F1800 ; Draw perimeter (down)
G1 X57.6417 Y115.9396 E3.31401 F1800 ; Draw perimeter (left)
G0 X58.148 Y116.4459 F7200 ; Step inwards to print next perimeter
G1 X58.148 Y126.9396 E0.54122 F1800 ; Draw perimeter (up)
G1 X121.3898 Y126.9396 E3.26178 F1800 ; Draw perimeter (right)
G1 X121.3898 Y116.4459 E0.54122 F1800 ; Draw perimeter (down)
G1 X58.148 Y116.4459 E3.26178 F1800 ; Draw perimeter (left)
G0 X58.6544 Y116.9523 F7200 ; Step inwards to print next perimeter
G1 X58.6544 Y126.4332 E0.48899 F1800 ; Draw perimeter (up)
G1 X120.8835 Y126.4332 E3.20955 F1800 ; Draw perimeter (right)
G1 X120.8835 Y116.9523 E0.48899 F1800 ; Draw perimeter (down)
G1 X58.6544 Y116.9523 E3.20955 F1800 ; Draw perimeter (left)
G0 X59.1607 Y117.4586 F7200 ; Step inwards to print next perimeter
G1 X59.1607 Y125.9269 E0.43676 F1800 ; Draw perimeter (up)
G1 X120.3771 Y125.9269 E3.15732 F1800 ; Draw perimeter (right)
G1 X120.3771 Y117.4586 E0.43676 F1800 ; Draw perimeter (down)
G1 X59.1607 Y117.4586 E3.15732 F1800 ; Draw perimeter (left)
G0 X59.5341 Y117.8319 F7200 ; Move to fill start
G0 X60.2502 Y117.8319 F7200 ; Move
G1 X59.5341 Y118.548 E0.05223 F1800 ; Fill
G0 X59.5341 Y119.2641 F7200 ; Move
G1 X60.9663 Y117.8319 E0.10446 F1800 ; Fill
G0 X61.6823 Y117.8319 F7200 ; Move
G1 X59.5341 Y119.9802 E0.15669 F1800 ; Fill
G0 X59.5341 Y120.6963 F7200 ; Move
G1 X62.3984 Y117.8319 E0.20893 F1800 ; Fill
G0 X63.1145 Y117.8319 F7200 ; Move
G1 X59.5341 Y121.4124 E0.26116 F1800 ; Fill
G0 X59.5341 Y122.1285 F7200 ; Move
G1 X63.8306 Y117.8319 E0.31339 F1800 ; Fill
G0 X64.5467 Y117.8319 F7200 ; Move
G1 X59.5341 Y122.8445 E0.36562 F1800 ; Fill
G0 X59.5341 Y123.5606 F7200 ; Move
G1 X65.2628 Y117.8319 E0.41785 F1800 ; Fill
G0 X65.9789 Y117.8319 F7200 ; Move
G1 X59.5341 Y124.2767 E0.47008 F1800 ; Fill
G0 X59.5341 Y124.9928 F7200 ; Move
G1 X66.6949 Y117.8319 E0.52231 F1800 ; Fill
G0 X67.411 Y117.8319 F7200 ; Move
G1 X59.6894 Y125.5535 E0.56321 F1800 ; Fill
G0 X60.4055 Y125.5535 F7200 ; Move
G1 X68.1271 Y117.8319 E0.56321 F1800 ; Fill
G0 X68.8432 Y117.8319 F7200 ; Move
G1 X61.1216 Y125.5535 E0.56321 F1800 ; Fill
G0 X61.8377 Y125.5535 F7200 ; Move
G1 X69.5593 Y117.8319 E0.56321 F1800 ; Fill
G0 X70.2754 Y117.8319 F7200 ; Move
G1 X62.5538 Y125.5535 E0.56321 F1800 ; Fill
G0 X63.2699 Y125.5535 F7200 ; Move
G1 X70.9915 Y117.8319 E0.56321 F1800 ; Fill
G0 X71.7076 Y117.8319 F7200 ; Move
G1 X63.986 Y125.5535 E0.56321 F1800 ; Fill
G0 X64.7021 Y125.5535 F7200 ; Move
G1 X72.4236 Y117.8319 E0.56321 F1800 ; Fill
G0 X73.1397 Y117.8319 F7200 ; Move
G1 X65.4181 Y125.5535 E0.56321 F1800 ; Fill
G0 X66.1342 Y125.5535 F7200 ; Move
G1 X73.8558 Y117.8319 E0.56321 F1800 ; Fill
G0 X74.5719 Y117.8319 F7200 ; Move
G1 X66.8503 Y125.5535 E0.56321 F1800 ; Fill
G0 X67.5664 Y125.5535 F7200 ; Move
G1 X75.288 Y117.8319 E0.56321 F1800 ; Fill
G0 X76.0041 Y117.8319 F7200 ; Move
G1 X68.2825 Y125.5535 E0.56321 F1800 ; Fill
G0 X68.9986 Y125.5535 F7200 ; Move
G1 X76.7202 Y117.8319 E0.56321 F1800 ; Fill
G0 X77.4362 Y117.8319 F7200 ; Move
G1 X69.7147 Y125.5535 E0.56321 F1800 ; Fill
G0 X70.4307 Y125.5535 F7200 ; Move
G1 X78.1523 Y117.8319 E0.56321 F1800 ; Fill
G0 X78.8684 Y117.8319 F7200 ; Move
G1 X71.1468 Y125.5535 E0.56321 F1800 ; Fill
G0 X71.8629 Y125.5535 F7200 ; Move
G1 X79.5845 Y117.8319 E0.56321 F1800 ; Fill
G0 X80.3006 Y117.8319 F7200 ; Move
G1 X72.579 Y125.5535 E0.56321 F1800 ; Fill
G0 X73.2951 Y125.5535 F7200 ; Move
G1 X81.0167 Y117.8319 E0.56321 F1800 ; Fill
G0 X81.7328 Y117.8319 F7200 ; Move
G1 X74.0112 Y125.5535 E0.56321 F1800 ; Fill
G0 X74.7273 Y125.5535 F7200 ; Move
G1 X82.4488 Y117.8319 E0.56321 F1800 ; Fill
G0 X83.1649 Y117.8319 F7200 ; Move
G1 X75.4433 Y125.5535 E0.56321 F1800 ; Fill
G0 X76.1594 Y125.5535 F7200 ; Move
G1 X83.881 Y117.8319 E0.56321 F1800 ; Fill
G0 X84.5971 Y117.8319 F7200 ; Move
G1 X76.8755 Y125.5535 E0.56321 F1800 ; Fill
G0 X77.5916 Y125.5535 F7200 ; Move
G1 X85.3132 Y117.8319 E0.56321 F1800 ; Fill
G0 X86.0293 Y117.8319 F7200 ; Move
G1 X78.3077 Y125.5535 E0.56321 F1800 ; Fill
G0 X79.0238 Y125.5535 F7200 ; Move
G1 X86.7454 Y117.8319 E0.56321 F1800 ; Fill
G0 X87.4615 Y117.8319 F7200 ; Move
G1 X79.7399 Y125.5535 E0.56321 F1800 ; Fill
G0 X80.456 Y125.5535 F7200 ; Move
G1 X88.1775 Y117.8319 E0.56321 F1800 ; Fill
G0 X88.8936 Y117.8319 F7200 ; Move
G1 X81.172 Y125.5535 E0.56321 F1800 ; Fill
G0 X81.8881 Y125.5535 F7200 ; Move
G1 X89.6097 Y117.8319 E0.56321 F1800 ; Fill
G0 X90.3258 Y117.8319 F7200 ; Move
G1 X82.6042 Y125.5535 E0.56321 F1800 ; Fill
G0 X83.3203 Y125.5535 F7200 ; Move
G1 X91.0419 Y117.8319 E0.56321 F1800 ; Fill
G0 X91.758 Y117.8319 F7200 ; Move
G1 X84.0364 Y125.5535 E0.56321 F1800 ; Fill
G0 X84.7525 Y125.5535 F7200 ; Move
G1 X92.4741 Y117.8319 E0.56321 F1800 ; Fill
G0 X93.1901 Y117.8319 F7200 ; Move
G1 X85.4686 Y125.5535 E0.56321 F1800 ; Fill
G0 X86.1846 Y125.5535 F7200 ; Move
G1 X93.9062 Y117.8319 E0.56321 F1800 ; Fill
G0 X94.6223 Y117.8319 F7200 ; Move
G1 X86.9007 Y125.5535 E0.56321 F1800 ; Fill
G0 X87.6168 Y125.5535 F7200 ; Move
G1 X95.3384 Y117.8319 E0.56321 F1800 ; Fill
G0 X96.0545 Y117.8319 F7200 ; Move
G1 X88.3329 Y125.5535 E0.56321 F1800 ; Fill
G0 X89.049 Y125.5535 F7200 ; Move
G1 X96.7706 Y117.8319 E0.56321 F1800 ; Fill
G0 X97.4867 Y117.8319 F7200 ; Move
G1 X89.7651 Y125.5535 E0.56321 F1800 ; Fill
G0 X90.4812 Y125.5535 F7200 ; Move
G1 X98.2027 Y117.8319 E0.56321 F1800 ; Fill
G0 X98.9188 Y117.8319 F7200 ; Move
G1 X91.1972 Y125.5535 E0.56321 F1800 ; Fill
G0 X91.9133 Y125.5535 F7200 ; Move
G1 X99.6349 Y117.8319 E0.56321 F1800 ; Fill
G0 X100.351 Y117.8319 F7200 ; Move
G1 X92.6294 Y125.5535 E0.56321 F1800 ; Fill
G0 X93.3455 Y125.5535 F7200 ; Move
G1 X101.0671 Y117.8319 E0.56321 F1800 ; Fill
G0 X101.7832 Y117.8319 F7200 ; Move
G1 X94.0616 Y125.5535 E0.56321 F1800 ; Fill
G0 X94.7777 Y125.5535 F7200 ; Move
G1 X102.4993 Y117.8319 E0.56321 F1800 ; Fill
G0 X103.2154 Y117.8319 F7200 ; Move
G1 X95.4938 Y125.5535 E0.56321 F1800 ; Fill
G0 X96.2099 Y125.5535 F7200 ; Move
G1 X103.9314 Y117.8319 E0.56321 F1800 ; Fill
G0 X104.6475 Y117.8319 F7200 ; Move
G1 X96.9259 Y125.5535 E0.56321 F1800 ; Fill
G0 X97.642 Y125.5535 F7200 ; Move
G1 X105.3636 Y117.8319 E0.56321 F1800 ; Fill
G0 X106.0797 Y117.8319 F7200 ; Move
G1 X98.3581 Y125.5535 E0.56321 F1800 ; Fill
G0 X99.0742 Y125.5535 F7200 ; Move
G1 X106.7958 Y117.8319 E0.56321 F1800 ; Fill
G0 X107.5119 Y117.8319 F7200 ; Move
G1 X99.7903 Y125.5535 E0.56321 F1800 ; Fill
G0 X100.5064 Y125.5535 F7200 ; Move
G1 X108.228 Y117.8319 E0.56321 F1800 ; Fill
G0 X108.944 Y117.8319 F7200 ; Move
G1 X101.2225 Y125.5535 E0.56321 F1800 ; Fill
G0 X101.9385 Y125.5535 F7200 ; Move
G1 X109.6601 Y117.8319 E0.56321 F1800 ; Fill
G0 X110.3762 Y117.8319 F7200 ; Move
G1 X102.6546 Y125.5535 E0.56321 F1800 ; Fill
G0 X103.3707 Y125.5535 F7200 ; Move
G1 X111.0923 Y117.8319 E0.56321 F1800 ; Fill
G0 X111.8084 Y117.8319 F7200 ; Move
G1 X104.0868 Y125.5535 E0.56321 F1800 ; Fill
G0 X104.8029 Y125.5535 F7200 ; Move
G1 X112.5245 Y117.8319 E0.56321 F1800 ; Fill
G0 X113.2406 Y117.8319 F7200 ; Move
G1 X105.519 Y125.5535 E0.56321 F1800 ; Fill
G0 X106.2351 Y125.5535 F7200 ; Move
G1 X113.9566 Y117.8319 E0.56321 F1800 ; Fill
G0 X114.6727 Y117.8319 F7200 ; Move
G1 X106.9511 Y125.5535 E0.56321 F1800 ; Fill
G0 X107.6672 Y125.5535 F7200 ; Move
G1 X115.3888 Y117.8319 E0.56321 F1800 ; Fill
G0 X116.1049 Y117.8319 F7200 ; Move
G1 X108.3833 Y125.5535 E0.56321 F1800 ; Fill
G0 X109.0994 Y125.5535 F7200 ; Move
G1 X116.821 Y117.8319 E0.56321 F1800 ; Fill
G0 X117.5371 Y117.8319 F7200 ; Move
G1 X109.8155 Y125.5535 E0.56321 F1800 ; Fill
G0 X110.5316 Y125.5535 F7200 ; Move
G1 X118.2532 Y117.8319 E0.56321 F1800 ; Fill
G0 X118.9693 Y117.8319 F7200 ; Move
G1 X111.2477 Y125.5535 E0.56321 F1800 ; Fill
G0 X111.9638 Y125.5535 F7200 ; Move
G1 X119.6853 Y117.8319 E0.56321 F1800 ; Fill
G0 X120.0038 Y118.2296 F7200 ; Move
G1 X112.6798 Y125.5535 E0.53421 F1800 ; Fill
G0 X113.3959 Y125.5535 F7200 ; Move
G1 X120.0038 Y118.9457 E0.48198 F1800 ; Fill
G0 X120.0038 Y119.6617 F7200 ; Move
G1 X114.112 Y125.5535 E0.42975 F1800 ; Fill
G0 X114.8281 Y125.5535 F7200 ; Move
G1 X120.0038 Y120.3778 E0.37751 F1800 ; Fill
G0 X120.0038 Y121.0939 F7200 ; Move
G1 X115.5442 Y125.5535 E0.32528 F1800 ; Fill
G0 X116.2603 Y125.5535 F7200 ; Move
G1 X120.0038 Y121.81 E0.27305 F1800 ; Fill
G0 X120.0038 Y122.5261 F7200 ; Move
G1 X116.9764 Y125.5535 E0.22082 F1800 ; Fill
G0 X117.6924 Y125.5535 F7200 ; Move
G1 X120.0038 Y123.2422 E0.16859 F1800 ; Fill
G0 X120.0038 Y123.9583 F7200 ; Move
G1 X118.4085 Y125.5535 E0.11636 F1800 ; Fill
G0 X119.1246 Y125.5535 F7200 ; Move
G1 X120.0038 Y124.6744 E0.06413 F1800 ; Fill
G0 X120.0038 Y125.3904 F7200 ; Move
G1 X119.8407 Y125.5535 E0.0119 F1800 ; Fill
G0 Z0.25 F7200 ; Move to layer height
G1 E-0.5 F2100 ; Retract
G1 Z0.35 F7200 ; Z hop
G0 X62.2384 Y74.8992 F7200 ; Move to pattern start

G1 Z0.25 F7200 ; Z hop return
G1 E0.5 F2100 ; Un-retract
M900 K0 ; Set linear advance k factor
M117 LA 0
G1 X81.5592 Y94.22 E1.10311 F1800 ; Print pattern wall
G1 X62.2384 Y113.5408 E1.10311 F1800 ; Print pattern wall
G1 E-0.5 F2100 ; Retract
G1 Z0.35 F7200 ; Z hop
G0 X62.8141 Y74.8992 F7200 ; Move to start next pattern wall
G1 Z0.25 F7200 ; Z hop return
G1 E0.5 F2100 ; Un-retract
G1 X82.1349 Y94.22 E1.10311 F1800 ; Print pattern wall
G1 X62.8141 Y113.5408 E1.10311 F1800 ; Print pattern wall
G1 E-0.5 F2100 ; Retract
G1 Z0.35 F7200 ; Z hop
G0 X63.3898 Y74.8992 F7200 ; Move to start next pattern wall
G1 Z0.25 F7200 ; Z hop return
G1 E0.5 F2100 ; Un-retract
G1 X82.7106 Y94.22 E1.10311 F1800 ; Print pattern wall
G1 X63.3898 Y113.5408 E1.10311 F1800 ; Print pattern wall
G1 E-0.5 F2100 ; Retract
G1 Z0.35 F7200 ; Z hop
G0 X65.8398 Y74.8992 F7200 ; Move to next pattern
G1 Z0.25 F7200 ; Z hop return
G1 E0.5 F2100 ; Un-retract
M900 K0.005 ; Set linear advance k factor
M117 LA 0.005
G1 X85.1606 Y94.22 E1.10311 F1800 ; Print pattern wall
G1 X65.8398 Y113.5408 E1.10311 F1800 ; Print pattern wall
G1 E-0.5 F2100 ; Retract
G1 Z0.35 F7200 ; Z hop
G0 X66.4155 Y74.8992 F7200 ; Move to start next pattern wall
G1 Z0.25 F7200 ; Z hop return
G1 E0.5 F2100 ; Un-retract
G1 X85.7363 Y94.22 E1.10311 F1800 ; Print pattern wall
G1 X66.4155 Y113.5408 E1.10311 F1800 ; Print pattern wall
G1 E-0.5 F2100 ; Retract
G1 Z0.35 F7200 ; Z hop
G0 X66.9912 Y74.8992 F7200 ; Move to start next pattern wall
G1 Z0.25 F7200 ; Z hop return
G1 E0.5 F2100 ; Un-retract
G1 X86.312 Y94.22 E1.10311 F1800 ; Print pattern wall
G1 X66.9912 Y113.5408 E1.10311 F1800 ; Print pattern wall
G1 E-0.5 F2100 ; Retract
G1 Z0.35 F7200 ; Z hop
G0 X69.4412 Y74.8992 F7200 ; Move to next pattern
G1 Z0.25 F7200 ; Z hop return
G1 E0.5 F2100 ; Un-retract
M900 K0.01 ; Set linear advance k factor
M117 LA 0.01
G1 X88.762 Y94.22 E1.10311 F1800 ; Print pattern wall
G1 X69.4412 Y113.5408 E1.10311 F1800 ; Print pattern wall
G1 E-0.5 F2100 ; Retract
G1 Z0.35 F7200 ; Z hop
G0 X70.0169 Y74.8992 F7200 ; Move to start next pattern wall
G1 Z0.25 F7200 ; Z hop return
G1 E0.5 F2100 ; Un-retract
G1 X89.3377 Y94.22 E1.10311 F1800 ; Print pattern wall
G1 X70.0169 Y113.5408 E1.10311 F1800 ; Print pattern wall
G1 E-0.5 F2100 ; Retract
G1 Z0.35 F7200 ; Z hop
G0 X70.5926 Y74.8992 F7200 ; Move to start next pattern wall
G1 Z0.25 F7200 ; Z hop return
G1 E0.5 F2100 ; Un-retract
G1 X89.9134 Y94.22 E1.10311 F1800 ; Print pattern wall
G1 X70.5926 Y113.5408 E1.10311 F1800 ; Print pattern wall
G1 E-0.5 F2100 ; Retract
G1 Z0.35 F7200 ; Z hop
G0 X73.0426 Y74.8992 F7200 ; Move to next pattern
G1 Z0.25 F7200 ; Z hop return
G1 E0.5 F2100 ; Un-retract
M900 K0.015 ; Set linear advance k factor
M117 LA 0.015
G1 X92.3634 Y94.22 E1.10311 F1800 ; Print pattern wall
G1 X73.0426 Y113.5408 E1.10311 F1800 ; Print pattern wall
G1 E-0.5 F2100 ; Retract
G1 Z0.35 F7200 ; Z hop
G0 X73.6183 Y74.8992 F7200 ; Move to start next pattern wall
G1 Z0.25 F7200 ; Z hop return
G1 E0.5 F2100 ; Un-retract
G1 X92.9391 Y94.22 E1.10311 F1800 ; Print pattern wall
G1 X73.6183 Y113.5408 E1.10311 F1800 ; Print pattern wall
G1 E-0.5 F2100 ; Retract
G1 Z0.35 F7200 ; Z hop
G0 X74.194 Y74.8992 F7200 ; Move to start next pattern wall
G1 Z0.25 F7200 ; Z hop return
G1 E0.5 F2100 ; Un-retract
G1 X93.5148 Y94.22 E1.10311 F1800 ; Print pattern wall
G1 X74.194 Y113.5408 E1.10311 F1800 ; Print pattern wall
G1 E-0.5 F2100 ; Retract
G1 Z0.35 F7200 ; Z hop
G0 X76.644 Y74.8992 F7200 ; Move to next pattern
G1 Z0.25 F7200 ; Z hop return
G1 E0.5 F2100 ; Un-retract
M900 K0.02 ; Set linear advance k factor
M117 LA 0.02
G1 X95.9648 Y94.22 E1.10311 F1800 ; Print pattern wall
G1 X76.644 Y113.5408 E1.10311 F1800 ; Print pattern wall
G1 E-0.5 F2100 ; Retract
G1 Z0.35 F7200 ; Z hop
G0 X77.2197 Y74.8992 F7200 ; Move to start next pattern wall
G1 Z0.25 F7200 ; Z hop return
G1 E0.5 F2100 ; Un-retract
G1 X96.5405 Y94.22 E1.10311 F1800 ; Print pattern wall
G1 X77.2197 Y113.5408 E1.10311 F1800 ; Print pattern wall
G1 E-0.5 F2100 ; Retract
G1 Z0.35 F7200 ; Z hop
G0 X77.7954 Y74.8992 F7200 ; Move to start next pattern wall
G1 Z0.25 F7200 ; Z hop return
G1 E0.5 F2100 ; Un-retract
G1 X97.1162 Y94.22 E1.10311 F1800 ; Print pattern wall
G1 X77.7954 Y113.5408 E1.10311 F1800 ; Print pattern wall
G1 E-0.5 F2100 ; Retract
G1 Z0.35 F7200 ; Z hop
G0 X80.2454 Y74.8992 F7200 ; Move to next pattern
G1 Z0.25 F7200 ; Z hop return
G1 E0.5 F2100 ; Un-retract
M900 K0.025 ; Set linear advance k factor
M117 LA 0.025
G1 X99.5662 Y94.22 E1.10311 F1800 ; Print pattern wall
G1 X80.2454 Y113.5408 E1.10311 F1800 ; Print pattern wall
G1 E-0.5 F2100 ; Retract
G1 Z0.35 F7200 ; Z hop
G0 X80.8211 Y74.8992 F7200 ; Move to start next pattern wall
G1 Z0.25 F7200 ; Z hop return
G1 E0.5 F2100 ; Un-retract
G1 X100.1419 Y94.22 E1.10311 F1800 ; Print pattern wall
G1 X80.8211 Y113.5408 E1.10311 F1800 ; Print pattern wall
G1 E-0.5 F2100 ; Retract
G1 Z0.35 F7200 ; Z hop
G0 X81.3968 Y74.8992 F7200 ; Move to start next pattern wall
G1 Z0.25 F7200 ; Z hop return
G1 E0.5 F2100 ; Un-retract
G1 X100.7176 Y94.22 E1.10311 F1800 ; Print pattern wall
G1 X81.3968 Y113.5408 E1.10311 F1800 ; Print pattern wall
G1 E-0.5 F2100 ; Retract
G1 Z0.35 F7200 ; Z hop
G0 X83.8468 Y74.8992 F7200 ; Move to next pattern
G1 Z0.25 F7200 ; Z hop return
G1 E0.5 F2100 ; Un-retract
M900 K0.03 ; Set linear advance k factor
M117 LA 0.03
G1 X103.1676 Y94.22 E1.10311 F1800 ; Print pattern wall
G1 X83.8468 Y113.5408 E1.10311 F1800 ; Print pattern wall
G1 E-0.5 F2100 ; Retract
G1 Z0.35 F7200 ; Z hop
G0 X84.4225 Y74.8992 F7200 ; Move to start next pattern wall
G1 Z0.25 F7200 ; Z hop return
G1 E0.5 F2100 ; Un-retract
G1 X103.7433 Y94.22 E1.10311 F1800 ; Print pattern wall
G1 X84.4225 Y113.5408 E1.10311 F1800 ; Print pattern wall
G1 E-0.5 F2100 ; Retract
G1 Z0.35 F7200 ; Z hop
G0 X84.9981 Y74.8992 F7200 ; Move to start next pattern wall
G1 Z0.25 F7200 ; Z hop return
G1 E0.5 F2100 ; Un-retract
G1 X104.319 Y94.22 E1.10311 F1800 ; Print pattern wall
G1 X84.9981 Y113.5408 E1.10311 F1800 ; Print pattern wall
G1 E-0.5 F2100 ; Retract
G1 Z0.35 F7200 ; Z hop
G0 X87.4481 Y74.8992 F7200 ; Move to next pattern
G1 Z0.25 F7200 ; Z hop return
G1 E0.5 F2100 ; Un-retract
M900 K0.035 ; Set linear advance k factor
M117 LA 0.035
G1 X106.769 Y94.22 E1.10311 F1800 ; Print pattern wall
G1 X87.4481 Y113.5408 E1.10311 F1800 ; Print pattern wall
G1 E-0.5 F2100 ; Retract
G1 Z0.35 F7200 ; Z hop
G0 X88.0238 Y74.8992 F7200 ; Move to start next pattern wall
G1 Z0.25 F7200 ; Z hop return
G1 E0.5 F2100 ; Un-retract
G1 X107.3447 Y94.22 E1.10311 F1800 ; Print pattern wall
G1 X88.0238 Y113.5408 E1.10311 F1800 ; Print pattern wall
G1 E-0.5 F2100 ; Retract
G1 Z0.35 F7200 ; Z hop
G0 X88.5995 Y74.8992 F7200 ; Move to start next pattern wall
G1 Z0.25 F7200 ; Z hop return
G1 E0.5 F2100 ; Un-retract
G1 X107.9204 Y94.22 E1.10311 F1800 ; Print pattern wall
G1 X88.5995 Y113.5408 E1.10311 F1800 ; Print pattern wall
G1 E-0.5 F2100 ; Retract
G1 Z0.35 F7200 ; Z hop
G0 X91.0495 Y74.8992 F7200 ; Move to next pattern
G1 Z0.25 F7200 ; Z hop return
G1 E0.5 F2100 ; Un-retract
M900 K0.04 ; Set linear advance k factor
M117 LA 0.04
G1 X110.3704 Y94.22 E1.10311 F1800 ; Print pattern wall
G1 X91.0495 Y113.5408 E1.10311 F1800 ; Print pattern wall
G1 E-0.5 F2100 ; Retract
G1 Z0.35 F7200 ; Z hop
G0 X91.6252 Y74.8992 F7200 ; Move to start next pattern wall
G1 Z0.25 F7200 ; Z hop return
G1 E0.5 F2100 ; Un-retract
G1 X110.9461 Y94.22 E1.10311 F1800 ; Print pattern wall
G1 X91.6252 Y113.5408 E1.10311 F1800 ; Print pattern wall
G1 E-0.5 F2100 ; Retract
G1 Z0.35 F7200 ; Z hop
G0 X92.2009 Y74.8992 F7200 ; Move to start next pattern wall
G1 Z0.25 F7200 ; Z hop return
G1 E0.5 F2100 ; Un-retract
G1 X111.5218 Y94.22 E1.10311 F1800 ; Print pattern wall
G1 X92.2009 Y113.5408 E1.10311 F1800 ; Print pattern wall
G1 E-0.5 F2100 ; Retract
G1 Z0.35 F7200 ; Z hop
G0 X94.6509 Y74.8992 F7200 ; Move to next pattern
G1 Z0.25 F7200 ; Z hop return
G1 E0.5 F2100 ; Un-retract
M900 K0.045 ; Set linear advance k factor
M117 LA 0.045
G1 X113.9718 Y94.22 E1.10311 F1800 ; Print pattern wall
G1 X94.6509 Y113.5408 E1.10311 F1800 ; Print pattern wall
G1 E-0.5 F2100 ; Retract
G1 Z0.35 F7200 ; Z hop
G0 X95.2266 Y74.8992 F7200 ; Move to start next pattern wall
G1 Z0.25 F7200 ; Z hop return
G1 E0.5 F2100 ; Un-retract
G1 X114.5475 Y94.22 E1.10311 F1800 ; Print pattern wall
G1 X95.2266 Y113.5408 E1.10311 F1800 ; Print pattern wall
G1 E-0.5 F2100 ; Retract
G1 Z0.35 F7200 ; Z hop
G0 X95.8023 Y74.8992 F7200 ; Move to start next pattern wall
G1 Z0.25 F7200 ; Z hop return
G1 E0.5 F2100 ; Un-retract
G1 X115.1232 Y94.22 E1.10311 F1800 ; Print pattern wall
G1 X95.8023 Y113.5408 E1.10311 F1800 ; Print pattern wall
G1 E-0.5 F2100 ; Retract
G1 Z0.35 F7200 ; Z hop
G0 X98.2523 Y74.8992 F7200 ; Move to next pattern
G1 Z0.25 F7200 ; Z hop return
G1 E0.5 F2100 ; Un-retract
M900 K0.05 ; Set linear advance k factor
M117 LA 0.05
G1 X117.5732 Y94.22 E1.10311 F1800 ; Print pattern wall
G1 X98.2523 Y113.5408 E1.10311 F1800 ; Print pattern wall
G1 E-0.5 F2100 ; Retract
G1 Z0.35 F7200 ; Z hop
G0 X98.828 Y74.8992 F7200 ; Move to start next pattern wall
G1 Z0.25 F7200 ; Z hop return
G1 E0.5 F2100 ; Un-retract
G1 X118.1489 Y94.22 E1.10311 F1800 ; Print pattern wall
G1 X98.828 Y113.5408 E1.10311 F1800 ; Print pattern wall
G1 E-0.5 F2100 ; Retract
G1 Z0.35 F7200 ; Z hop
G0 X99.4037 Y74.8992 F7200 ; Move to start next pattern wall
G1 Z0.25 F7200 ; Z hop return
G1 E0.5 F2100 ; Un-retract
G1 X118.7246 Y94.22 E1.10311 F1800 ; Print pattern wall
G1 X99.4037 Y113.5408 E1.10311 F1800 ; Print pattern wall
G1 E-0.5 F2100 ; Retract
G1 Z0.35 F7200 ; Z hop
G0 X101.8537 Y74.8992 F7200 ; Move to next pattern
G1 Z0.25 F7200 ; Z hop return
G1 E0.5 F2100 ; Un-retract
M900 K0.055 ; Set linear advance k factor
M117 LA 0.055
G1 X121.1746 Y94.22 E1.10311 F1800 ; Print pattern wall
G1 X101.8537 Y113.5408 E1.10311 F1800 ; Print pattern wall
G1 E-0.5 F2100 ; Retract
G1 Z0.35 F7200 ; Z hop
G0 X102.4294 Y74.8992 F7200 ; Move to start next pattern wall
G1 Z0.25 F7200 ; Z hop return
G1 E0.5 F2100 ; Un-retract
G1 X121.7502 Y94.22 E1.10311 F1800 ; Print pattern wall
G1 X102.4294 Y113.5408 E1.10311 F1800 ; Print pattern wall
G1 E-0.5 F2100 ; Retract
G1 Z0.35 F7200 ; Z hop
G0 X103.0051 Y74.8992 F7200 ; Move to start next pattern wall
G1 Z0.25 F7200 ; Z hop return
G1 E0.5 F2100 ; Un-retract
G1 X122.3259 Y94.22 E1.10311 F1800 ; Print pattern wall
G1 X103.0051 Y113.5408 E1.10311 F1800 ; Print pattern wall
G1 E-0.5 F2100 ; Retract
G1 Z0.35 F7200 ; Z hop
G0 X105.4551 Y74.8992 F7200 ; Move to next pattern
G1 Z0.25 F7200 ; Z hop return
G1 E0.5 F2100 ; Un-retract
M900 K0.06 ; Set linear advance k factor
M117 LA 0.06
G1 X124.7759 Y94.22 E1.10311 F1800 ; Print pattern wall
G1 X105.4551 Y113.5408 E1.10311 F1800 ; Print pattern wall
G1 E-0.5 F2100 ; Retract
G1 Z0.35 F7200 ; Z hop
G0 X106.0308 Y74.8992 F7200 ; Move to start next pattern wall
G1 Z0.25 F7200 ; Z hop return
G1 E0.5 F2100 ; Un-retract
G1 X125.3516 Y94.22 E1.10311 F1800 ; Print pattern wall
G1 X106.0308 Y113.5408 E1.10311 F1800 ; Print pattern wall
G1 E-0.5 F2100 ; Retract
G1 Z0.35 F7200 ; Z hop
G0 X106.6065 Y74.8992 F7200 ; Move to start next pattern wall
G1 Z0.25 F7200 ; Z hop return
G1 E0.5 F2100 ; Un-retract
G1 X125.9273 Y94.22 E1.10311 F1800 ; Print pattern wall
G1 X106.6065 Y113.5408 E1.10311 F1800 ; Print pattern wall
G1 E-0.5 F2100 ; Retract
G1 Z0.35 F7200 ; Z hop
G0 X109.0565 Y74.8992 F7200 ; Move to next pattern
G1 Z0.25 F7200 ; Z hop return
G1 E0.5 F2100 ; Un-retract
M900 K0.065 ; Set linear advance k factor
M117 LA 0.065
G1 X128.3773 Y94.22 E1.10311 F1800 ; Print pattern wall
G1 X109.0565 Y113.5408 E1.10311 F1800 ; Print pattern wall
G1 E-0.5 F2100 ; Retract
G1 Z0.35 F7200 ; Z hop
G0 X109.6322 Y74.8992 F7200 ; Move to start next pattern wall
G1 Z0.25 F7200 ; Z hop return
G1 E0.5 F2100 ; Un-retract
G1 X128.953 Y94.22 E1.10311 F1800 ; Print pattern wall
G1 X109.6322 Y113.5408 E1.10311 F1800 ; Print pattern wall
G1 E-0.5 F2100 ; Retract
G1 Z0.35 F7200 ; Z hop
G0 X110.2079 Y74.8992 F7200 ; Move to start next pattern wall
G1 Z0.25 F7200 ; Z hop return
G1 E0.5 F2100 ; Un-retract
G1 X129.5287 Y94.22 E1.10311 F1800 ; Print pattern wall
G1 X110.2079 Y113.5408 E1.10311 F1800 ; Print pattern wall
G1 E-0.5 F2100 ; Retract
G1 Z0.35 F7200 ; Z hop
G0 X112.6579 Y74.8992 F7200 ; Move to next pattern
G1 Z0.25 F7200 ; Z hop return
G1 E0.5 F2100 ; Un-retract
M900 K0.07 ; Set linear advance k factor
M117 LA 0.07
G1 X131.9787 Y94.22 E1.10311 F1800 ; Print pattern wall
G1 X112.6579 Y113.5408 E1.10311 F1800 ; Print pattern wall
G1 E-0.5 F2100 ; Retract
G1 Z0.35 F7200 ; Z hop
G0 X113.2336 Y74.8992 F7200 ; Move to start next pattern wall
G1 Z0.25 F7200 ; Z hop return
G1 E0.5 F2100 ; Un-retract
G1 X132.5544 Y94.22 E1.10311 F1800 ; Print pattern wall
G1 X113.2336 Y113.5408 E1.10311 F1800 ; Print pattern wall
G1 E-0.5 F2100 ; Retract
G1 Z0.35 F7200 ; Z hop
G0 X113.8093 Y74.8992 F7200 ; Move to start next pattern wall
G1 Z0.25 F7200 ; Z hop return
G1 E0.5 F2100 ; Un-retract
G1 X133.1301 Y94.22 E1.10311 F1800 ; Print pattern wall
G1 X113.8093 Y113.5408 E1.10311 F1800 ; Print pattern wall
G1 E-0.5 F2100 ; Retract
G1 Z0.35 F7200 ; Z hop
G0 X116.2593 Y74.8992 F7200 ; Move to next pattern
G1 Z0.25 F7200 ; Z hop return
G1 E0.5 F2100 ; Un-retract
M900 K0.075 ; Set linear advance k factor
M117 LA 0.075
G1 X135.5801 Y94.22 E1.10311 F1800 ; Print pattern wall
G1 X116.2593 Y113.5408 E1.10311 F1800 ; Print pattern wall
G1 E-0.5 F2100 ; Retract
G1 Z0.35 F7200 ; Z hop
G0 X116.835 Y74.8992 F7200 ; Move to start next pattern wall
G1 Z0.25 F7200 ; Z hop return
G1 E0.5 F2100 ; Un-retract
G1 X136.1558 Y94.22 E1.10311 F1800 ; Print pattern wall
G1 X116.835 Y113.5408 E1.10311 F1800 ; Print pattern wall
G1 E-0.5 F2100 ; Retract
G1 Z0.35 F7200 ; Z hop
G0 X117.4107 Y74.8992 F7200 ; Move to start next pattern wall
G1 Z0.25 F7200 ; Z hop return
G1 E0.5 F2100 ; Un-retract
G1 X136.7315 Y94.22 E1.10311 F1800 ; Print pattern wall
G1 X117.4107 Y113.5408 E1.10311 F1800 ; Print pattern wall
G1 E-0.5 F2100 ; Retract
G1 Z0.35 F7200 ; Z hop
G0 X119.8607 Y74.8992 F7200 ; Move to next pattern
G1 Z0.25 F7200 ; Z hop return
G1 E0.5 F2100 ; Un-retract
M900 K0.08 ; Set linear advance k factor
M117 LA 0.08
G1 X139.1815 Y94.22 E1.10311 F1800 ; Print pattern wall
G1 X119.8607 Y113.5408 E1.10311 F1800 ; Print pattern wall
G1 E-0.5 F2100 ; Retract
G1 Z0.35 F7200 ; Z hop
G0 X120.4364 Y74.8992 F7200 ; Move to start next pattern wall
G1 Z0.25 F7200 ; Z hop return
G1 E0.5 F2100 ; Un-retract
G1 X139.7572 Y94.22 E1.10311 F1800 ; Print pattern wall
G1 X120.4364 Y113.5408 E1.10311 F1800 ; Print pattern wall
G1 E-0.5 F2100 ; Retract
G1 Z0.35 F7200 ; Z hop
G0 X121.0121 Y74.8992 F7200 ; Move to start next pattern wall
G1 Z0.25 F7200 ; Z hop return
G1 E0.5 F2100 ; Un-retract
G1 X140.3329 Y94.22 E1.10311 F1800 ; Print pattern wall
G1 X121.0121 Y113.5408 E1.10311 F1800 ; Print pattern wall
G1 E-0.5 F2100 ; Retract
G1 Z0.35 F7200 ; Z hop
G0 X62.2384 Y74.8992 F7200 ; Move back to start position
G1 Z0.25 F7200 ; Z hop return
G1 E0.5 F2100 ; Un-retract
M106 S255 ; Set fan speed
G0 Z0.45 F7200 ; Move to layer height
M900 K0 ; Set linear advance k factor to start value for numbering
M117 LA 0
G1 E-0.5 F2100 ; Retract
G1 Z0.55 F7200 ; Z hop
G0 X58.9217 Y116.8832 F7200 ; Move
G1 Z0.45 F7200 ; Z hop return
G1 E0.5 F2100 ; Un-retract
G1 X60.9217 Y116.8832 E0.06634 F1800 ; Glyph: 0
G1 X62.9217 Y116.8832 E0.06634 F1800 ; Glyph: 0
G1 X62.9217 Y118.8832 E0.06634 F1800 ; Glyph: 0
G1 X60.9217 Y118.8832 E0.06634 F1800 ; Glyph: 0
G1 X58.9217 Y118.8832 E0.06634 F1800 ; Glyph: 0
G1 X58.9217 Y116.8832 E0.06634 F1800 ; Glyph: 0
G1 E-0.5 F2100 ; Retract
G1 Z0.55 F7200 ; Z hop
G0 X66.1245 Y116.8832 F7200 ; Move
G1 Z0.45 F7200 ; Z hop return
G1 E0.5 F2100 ; Un-retract
G1 X68.1245 Y116.8832 E0.06634 F1800 ; Glyph: 0
G1 X70.1245 Y116.8832 E0.06634 F1800 ; Glyph: 0
G1 X70.1245 Y118.8832 E0.06634 F1800 ; Glyph: 0
G1 X68.1245 Y118.8832 E0.06634 F1800 ; Glyph: 0
G1 X66.1245 Y118.8832 E0.06634 F1800 ; Glyph: 0
G1 X66.1245 Y116.8832 E0.06634 F1800 ; Glyph: 0
G1 E-0.5 F2100 ; Retract
G1 Z0.55 F7200 ; Z hop
G0 X70.1245 Y119.8832 F7200 ; Move
G1 Z0.45 F7200 ; Z hop return
G1 E0.5 F2100 ; Un-retract
G1 X69.3745 Y119.8832 E0.02488 F1800 ; Glyph: .
G1 E-0.5 F2100 ; Retract
G1 Z0.55 F7200 ; Z hop
G0 X66.1245 Y120.8832 F7200 ; Move
G1 Z0.45 F7200 ; Z hop return
G1 E0.5 F2100 ; Un-retract
G1 X68.1245 Y120.8832 E0.06634 F1800 ; Glyph: 0
G1 X70.1245 Y120.8832 E0.06634 F1800 ; Glyph: 0
G1 X70.1245 Y122.8832 E0.06634 F1800 ; Glyph: 0
G1 X68.1245 Y122.8832 E0.06634 F1800 ; Glyph: 0
G1 X66.1245 Y122.8832 E0.06634 F1800 ; Glyph: 0
G1 X66.1245 Y120.8832 E0.06634 F1800 ; Glyph: 0
G1 E-0.5 F2100 ; Retract
G1 Z0.55 F7200 ; Z hop
G0 X66.1245 Y123.8832 F7200 ; Move
G1 Z0.45 F7200 ; Z hop return
G1 E0.5 F2100 ; Un-retract
G1 X68.1245 Y123.8832 E0.06634 F1800 ; Glyph: 1
G1 X70.1245 Y123.8832 E0.06634 F1800 ; Glyph: 1
G1 E-0.5 F2100 ; Retract
G1 Z0.55 F7200 ; Z hop
G0 X73.3273 Y116.8832 F7200 ; Move
G1 Z0.45 F7200 ; Z hop return
G1 E0.5 F2100 ; Un-retract
G1 X75.3273 Y116.8832 E0.06634 F1800 ; Glyph: 0
G1 X77.3273 Y116.8832 E0.06634 F1800 ; Glyph: 0
G1 X77.3273 Y118.8832 E0.06634 F1800 ; Glyph: 0
G1 X75.3273 Y118.8832 E0.06634 F1800 ; Glyph: 0
G1 X73.3273 Y118.8832 E0.06634 F1800 ; Glyph: 0
G1 X73.3273 Y116.8832 E0.06634 F1800 ; Glyph: 0
G1 E-0.5 F2100 ; Retract
G1 Z0.55 F7200 ; Z hop
G0 X77.3273 Y119.8832 F7200 ; Move
G1 Z0.45 F7200 ; Z hop return
G1 E0.5 F2100 ; Un-retract
G1 X76.5773 Y119.8832 E0.02488 F1800 ; Glyph: .
G1 E-0.5 F2100 ; Retract
G1 Z0.55 F7200 ; Z hop
G0 X73.3273 Y120.8832 F7200 ; Move
G1 Z0.45 F7200 ; Z hop return
G1 E0.5 F2100 ; Un-retract
G1 X75.3273 Y120.8832 E0.06634 F1800 ; Glyph: 0
G1 X77.3273 Y120.8832 E0.06634 F1800 ; Glyph: 0
G1 X77.3273 Y122.8832 E0.06634 F1800 ; Glyph: 0
G1 X75.3273 Y122.8832 E0.06634 F1800 ; Glyph: 0
G1 X73.3273 Y122.8832 E0.06634 F1800 ; Glyph: 0
G1 X73.3273 Y120.8832 E0.06634 F1800 ; Glyph: 0
G1 E-0.5 F2100 ; Retract
G1 Z0.55 F7200 ; Z hop
G0 X73.3273 Y123.8832 F7200 ; Move
G1 Z0.45 F7200 ; Z hop return
G1 E0.5 F2100 ; Un-retract
G1 X73.3273 Y125.8832 E0.06634 F1800 ; Glyph: 2
G1 X75.3273 Y125.8832 E0.06634 F1800 ; Glyph: 2
G1 X75.3273 Y123.8832 E0.06634 F1800 ; Glyph: 2
G1 X77.3273 Y123.8832 E0.06634 F1800 ; Glyph: 2
G1 X77.3273 Y125.8832 E0.06634 F1800 ; Glyph: 2
G1 E-0.5 F2100 ; Retract
G1 Z0.55 F7200 ; Z hop
G0 X80.5301 Y116.8832 F7200 ; Move
G1 Z0.45 F7200 ; Z hop return
G1 E0.5 F2100 ; Un-retract
G1 X82.5301 Y116.8832 E0.06634 F1800 ; Glyph: 0
G1 X84.5301 Y116.8832 E0.06634 F1800 ; Glyph: 0
G1 X84.5301 Y118.8832 E0.06634 F1800 ; Glyph: 0
G1 X82.5301 Y118.8832 E0.06634 F1800 ; Glyph: 0
G1 X80.5301 Y118.8832 E0.06634 F1800 ; Glyph: 0
G1 X80.5301 Y116.8832 E0.06634 F1800 ; Glyph: 0
G1 E-0.5 F2100 ; Retract
G1 Z0.55 F7200 ; Z hop
G0 X84.5301 Y119.8832 F7200 ; Move
G1 Z0.45 F7200 ; Z hop return
G1 E0.5 F2100 ; Un-retract
G1 X83.7801 Y119.8832 E0.02488 F1800 ; Glyph: .
G1 E-0.5 F2100 ; Retract
G1 Z0.55 F7200 ; Z hop
G0 X80.5301 Y120.8832 F7200 ; Move
G1 Z0.45 F7200 ; Z hop return
G1 E0.5 F2100 ; Un-retract
G1 X82.5301 Y120.8832 E0.06634 F1800 ; Glyph: 0
G1 X84.5301 Y120.8832 E0.06634 F1800 ; Glyph: 0
G1 X84.5301 Y122.8832 E0.06634 F1800 ; Glyph: 0
G1 X82.5301 Y122.8832 E0.06634 F1800 ; Glyph: 0
G1 X80.5301 Y122.8832 E0.06634 F1800 ; Glyph: 0
G1 X80.5301 Y120.8832 E0.06634 F1800 ; Glyph: 0
G1 E-0.5 F2100 ; Retract
G1 Z0.55 F7200 ; Z hop
G0 X80.5301 Y123.8832 F7200 ; Move
G1 Z0.45 F7200 ; Z hop return
G1 E0.5 F2100 ; Un-retract
G1 X80.5301 Y125.8832 E0.06634 F1800 ; Glyph: 3
G1 X82.5301 Y125.8832 E0.06634 F1800 ; Glyph: 3
G1 X82.5301 Y123.8832 E0.06634 F1800 ; Glyph: 3
G0 X82.5301 Y125.8832 F7200 ; Move
G1 X84.5301 Y125.8832 E0.06634 F1800 ; Glyph: 3
G1 X84.5301 Y123.8832 E0.06634 F1800 ; Glyph: 3
G1 E-0.5 F2100 ; Retract
G1 Z0.55 F7200 ; Z hop
G0 X87.7329 Y116.8832 F7200 ; Move
G1 Z0.45 F7200 ; Z hop return
G1 E0.5 F2100 ; Un-retract
G1 X89.7329 Y116.8832 E0.06634 F1800 ; Glyph: 0
G1 X91.7329 Y116.8832 E0.06634 F1800 ; Glyph: 0
G1 X91.7329 Y118.8832 E0.06634 F1800 ; Glyph: 0
G1 X89.7329 Y118.8832 E0.06634 F1800 ; Glyph: 0
G1 X87.7329 Y118.8832 E0.06634 F1800 ; Glyph: 0
G1 X87.7329 Y116.8832 E0.06634 F1800 ; Glyph: 0
G1 E-0.5 F2100 ; Retract
G1 Z0.55 F7200 ; Z hop
G0 X91.7329 Y119.8832 F7200 ; Move
G1 Z0.45 F7200 ; Z hop return
G1 E0.5 F2100 ; Un-retract
G1 X90.9829 Y119.8832 E0.02488 F1800 ; Glyph: .
G1 E-0.5 F2100 ; Retract
G1 Z0.55 F7200 ; Z hop
G0 X87.7329 Y120.8832 F7200 ; Move
G1 Z0.45 F7200 ; Z hop return
G1 E0.5 F2100 ; Un-retract
G1 X89.7329 Y120.8832 E0.06634 F1800 ; Glyph: 0
G1 X91.7329 Y120.8832 E0.06634 F1800 ; Glyph: 0
G1 X91.7329 Y122.8832 E0.06634 F1800 ; Glyph: 0
G1 X89.7329 Y122.8832 E0.06634 F1800 ; Glyph: 0
G1 X87.7329 Y122.8832 E0.06634 F1800 ; Glyph: 0
G1 X87.7329 Y120.8832 E0.06634 F1800 ; Glyph: 0
G1 E-0.5 F2100 ; Retract
G1 Z0.55 F7200 ; Z hop
G0 X87.7329 Y125.8832 F7200 ; Move
G1 Z0.45 F7200 ; Z hop return
G1 E0.5 F2100 ; Un-retract
G1 X89.7329 Y125.8832 E0.06634 F1800 ; Glyph: 4
G1 X91.7329 Y125.8832 E0.06634 F1800 ; Glyph: 4
G0 X89.7329 Y125.8832 F7200 ; Move
G1 X89.7329 Y123.8832 E0.06634 F1800 ; Glyph: 4
G1 X87.7329 Y123.8832 E0.06634 F1800 ; Glyph: 4
G1 E-0.5 F2100 ; Retract
G1 Z0.55 F7200 ; Z hop
G0 X94.9357 Y116.8832 F7200 ; Move
G1 Z0.45 F7200 ; Z hop return
G1 E0.5 F2100 ; Un-retract
G1 X96.9357 Y116.8832 E0.06634 F1800 ; Glyph: 0
G1 X98.9357 Y116.8832 E0.06634 F1800 ; Glyph: 0
G1 X98.9357 Y118.8832 E0.06634 F1800 ; Glyph: 0
G1 X96.9357 Y118.8832 E0.06634 F1800 ; Glyph: 0
G1 X94.9357 Y118.8832 E0.06634 F1800 ; Glyph: 0
G1 X94.9357 Y116.8832 E0.06634 F1800 ; Glyph: 0
G1 E-0.5 F2100 ; Retract
G1 Z0.55 F7200 ; Z hop
G0 X98.9357 Y119.8832 F7200 ; Move
G1 Z0.45 F7200 ; Z hop return
G1 E0.5 F2100 ; Un-retract
G1 X98.1857 Y119.8832 E0.02488 F1800 ; Glyph: .
G1 E-0.5 F2100 ; Retract
G1 Z0.55 F7200 ; Z hop
G0 X94.9357 Y120.8832 F7200 ; Move
G1 Z0.45 F7200 ; Z hop return
G1 E0.5 F2100 ; Un-retract
G1 X96.9357 Y120.8832 E0.06634 F1800 ; Glyph: 0
G1 X98.9357 Y120.8832 E0.06634 F1800 ; Glyph: 0
G1 X98.9357 Y122.8832 E0.06634 F1800 ; Glyph: 0
G1 X96.9357 Y122.8832 E0.06634 F1800 ; Glyph: 0
G1 X94.9357 Y122.8832 E0.06634 F1800 ; Glyph: 0
G1 X94.9357 Y120.8832 E0.06634 F1800 ; Glyph: 0
G1 E-0.5 F2100 ; Retract
G1 Z0.55 F7200 ; Z hop
G0 X94.9357 Y125.8832 F7200 ; Move
G1 Z0.45 F7200 ; Z hop return
G1 E0.5 F2100 ; Un-retract
G1 X94.9357 Y123.8832 E0.06634 F1800 ; Glyph: 5
G1 X96.9357 Y123.8832 E0.06634 F1800 ; Glyph: 5
G1 X96.9357 Y125.8832 E0.06634 F1800 ; Glyph: 5
G1 X98.9357 Y125.8832 E0.06634 F1800 ; Glyph: 5
G1 X98.9357 Y123.8832 E0.06634 F1800 ; Glyph: 5
G1 E-0.5 F2100 ; Retract
G1 Z0.55 F7200 ; Z hop
G0 X102.1384 Y116.8832 F7200 ; Move
G1 Z0.45 F7200 ; Z hop return
G1 E0.5 F2100 ; Un-retract
G1 X104.1384 Y116.8832 E0.06634 F1800 ; Glyph: 0
G1 X106.1384 Y116.8832 E0.06634 F1800 ; Glyph: 0
G1 X106.1384 Y118.8832 E0.06634 F1800 ; Glyph: 0
G1 X104.1384 Y118.8832 E0.06634 F1800 ; Glyph: 0
G1 X102.1384 Y118.8832 E0.06634 F1800 ; Glyph: 0
G1 X102.1384 Y116.8832 E0.06634 F1800 ; Glyph: 0
G1 E-0.5 F2100 ; Retract
G1 Z0.55 F7200 ; Z hop
G0 X106.1384 Y119.8832 F7200 ; Move
G1 Z0.45 F7200 ; Z hop return
G1 E0.5 F2100 ; Un-retract
G1 X105.3884 Y119.8832 E0.02488 F1800 ; Glyph: .
G1 E-0.5 F2100 ; Retract
G1 Z0.55 F7200 ; Z hop
G0 X102.1384 Y120.8832 F7200 ; Move
G1 Z0.45 F7200 ; Z hop return
G1 E0.5 F2100 ; Un-retract
G1 X104.1384 Y120.8832 E0.06634 F1800 ; Glyph: 0
G1 X106.1384 Y120.8832 E0.06634 F1800 ; Glyph: 0
G1 X106.1384 Y122.8832 E0.06634 F1800 ; Glyph: 0
G1 X104.1384 Y122.8832 E0.06634 F1800 ; Glyph: 0
G1 X102.1384 Y122.8832 E0.06634 F1800 ; Glyph: 0
G1 X102.1384 Y120.8832 E0.06634 F1800 ; Glyph: 0
G1 E-0.5 F2100 ; Retract
G1 Z0.55 F7200 ; Z hop
G0 X102.1384 Y125.8832 F7200 ; Move
G1 Z0.45 F7200 ; Z hop return
G1 E0.5 F2100 ; Un-retract
G1 X102.1384 Y123.8832 E0.06634 F1800 ; Glyph: 6
G1 X104.1384 Y123.8832 E0.06634 F1800 ; Glyph: 6
G1 X106.1384 Y123.8832 E0.06634 F1800 ; Glyph: 6
G1 X106.1384 Y125.8832 E0.06634 F1800 ; Glyph: 6
G1 X104.1384 Y125.8832 E0.06634 F1800 ; Glyph: 6
G1 X104.1384 Y123.8832 E0.06634 F1800 ; Glyph: 6
G1 E-0.5 F2100 ; Retract
G1 Z0.55 F7200 ; Z hop
G0 X109.3412 Y116.8832 F7200 ; Move
G1 Z0.45 F7200 ; Z hop return
G1 E0.5 F2100 ; Un-retract
G1 X111.3412 Y116.8832 E0.06634 F1800 ; Glyph: 0
G1 X113.3412 Y116.8832 E0.06634 F1800 ; Glyph: 0
G1 X113.3412 Y118.8832 E0.06634 F1800 ; Glyph: 0
G1 X111.3412 Y118.8832 E0.06634 F1800 ; Glyph: 0
G1 X109.3412 Y118.8832 E0.06634 F1800 ; Glyph: 0
G1 X109.3412 Y116.8832 E0.06634 F1800 ; Glyph: 0
G1 E-0.5 F2100 ; Retract
G1 Z0.55 F7200 ; Z hop
G0 X113.3412 Y119.8832 F7200 ; Move
G1 Z0.45 F7200 ; Z hop return
G1 E0.5 F2100 ; Un-retract
G1 X112.5912 Y119.8832 E0.02488 F1800 ; Glyph: .
G1 E-0.5 F2100 ; Retract
G1 Z0.55 F7200 ; Z hop
G0 X109.3412 Y120.8832 F7200 ; Move
G1 Z0.45 F7200 ; Z hop return
G1 E0.5 F2100 ; Un-retract
G1 X111.3412 Y120.8832 E0.06634 F1800 ; Glyph: 0
G1 X113.3412 Y120.8832 E0.06634 F1800 ; Glyph: 0
G1 X113.3412 Y122.8832 E0.06634 F1800 ; Glyph: 0
G1 X111.3412 Y122.8832 E0.06634 F1800 ; Glyph: 0
G1 X109.3412 Y122.8832 E0.06634 F1800 ; Glyph: 0
G1 X109.3412 Y120.8832 E0.06634 F1800 ; Glyph: 0
G1 E-0.5 F2100 ; Retract
G1 Z0.55 F7200 ; Z hop
G0 X109.3412 Y123.8832 F7200 ; Move
G1 Z0.45 F7200 ; Z hop return
G1 E0.5 F2100 ; Un-retract
G1 X109.3412 Y125.8832 E0.06634 F1800 ; Glyph: 7
G1 X111.3412 Y125.8832 E0.06634 F1800 ; Glyph: 7
G1 X113.3412 Y125.8832 E0.06634 F1800 ; Glyph: 7
G1 E-0.5 F2100 ; Retract
G1 Z0.55 F7200 ; Z hop
G0 X116.544 Y116.8832 F7200 ; Move
G1 Z0.45 F7200 ; Z hop return
G1 E0.5 F2100 ; Un-retract
G1 X118.544 Y116.8832 E0.06634 F1800 ; Glyph: 0
G1 X120.544 Y116.8832 E0.06634 F1800 ; Glyph: 0
G1 X120.544 Y118.8832 E0.06634 F1800 ; Glyph: 0
G1 X118.544 Y118.8832 E0.06634 F1800 ; Glyph: 0
G1 X116.544 Y118.8832 E0.06634 F1800 ; Glyph: 0
G1 X116.544 Y116.8832 E0.06634 F1800 ; Glyph: 0
G1 E-0.5 F2100 ; Retract
G1 Z0.55 F7200 ; Z hop
G0 X120.544 Y119.8832 F7200 ; Move
G1 Z0.45 F7200 ; Z hop return
G1 E0.5 F2100 ; Un-retract
G1 X119.794 Y119.8832 E0.02488 F1800 ; Glyph: .
G1 E-0.5 F2100 ; Retract
G1 Z0.55 F7200 ; Z hop
G0 X116.544 Y120.8832 F7200 ; Move
G1 Z0.45 F7200 ; Z hop return
G1 E0.5 F2100 ; Un-retract
G1 X118.544 Y120.8832 E0.06634 F1800 ; Glyph: 0
G1 X120.544 Y120.8832 E0.06634 F1800 ; Glyph: 0
G1 X120.544 Y122.8832 E0.06634 F1800 ; Glyph: 0
G1 X118.544 Y122.8832 E0.06634 F1800 ; Glyph: 0
G1 X116.544 Y122.8832 E0.06634 F1800 ; Glyph: 0
G1 X116.544 Y120.8832 E0.06634 F1800 ; Glyph: 0
G1 E-0.5 F2100 ; Retract
G1 Z0.55 F7200 ; Z hop
G0 X116.544 Y123.8832 F7200 ; Move
G1 Z0.45 F7200 ; Z hop return
G1 E0.5 F2100 ; Un-retract
G1 X118.544 Y123.8832 E0.06634 F1800 ; Glyph: 8
G1 X120.544 Y123.8832 E0.06634 F1800 ; Glyph: 8
G1 X120.544 Y125.8832 E0.06634 F1800 ; Glyph: 8
G1 X118.544 Y125.8832 E0.06634 F1800 ; Glyph: 8
G1 X116.544 Y125.8832 E0.06634 F1800 ; Glyph: 8
G1 X116.544 Y123.8832 E0.06634 F1800 ; Glyph: 8
G0 X118.544 Y123.8832 F7200 ; Move
G1 X118.544 Y125.8832 E0.06634 F1800 ; Glyph: 8
G1 E-0.5 F2100 ; Retract
G1 Z0.55 F7200 ; Z hop
G0 X60.346 Y73.0068 F7200 ; Move to pattern start

G1 Z0.45 F7200 ; Z hop return
G1 E0.5 F2100 ; Un-retract
M900 K0 ; Set linear advance k factor
M117 LA 0
G1 X81.5592 Y94.22 E0.99515 F6000 ; Print pattern wall
G1 X60.346 Y115.4332 E0.99515 F6000 ; Print pattern wall
G1 E-0.5 F2100 ; Retract
G1 Z0.55 F7200 ; Z hop
G0 X60.9217 Y73.0068 F7200 ; Move to start next pattern wall
G1 Z0.45 F7200 ; Z hop return
G1 E0.5 F2100 ; Un-retract
G1 X82.1349 Y94.22 E0.99515 F6000 ; Print pattern wall
G1 X60.9217 Y115.4332 E0.99515 F6000 ; Print pattern wall
G1 E-0.5 F2100 ; Retract
G1 Z0.55 F7200 ; Z hop
G0 X61.4974 Y73.0068 F7200 ; Move to start next pattern wall
G1 Z0.45 F7200 ; Z hop return
G1 E0.5 F2100 ; Un-retract
G1 X82.7106 Y94.22 E0.99515 F6000 ; Print pattern wall
G1 X61.4974 Y115.4332 E0.99515 F6000 ; Print pattern wall
G1 E-0.5 F2100 ; Retract
G1 Z0.55 F7200 ; Z hop
G0 X63.9474 Y73.0068 F7200 ; Move to next pattern
G1 Z0.45 F7200 ; Z hop return
G1 E0.5 F2100 ; Un-retract
M900 K0.005 ; Set linear advance k factor
M117 LA 0.005
G1 X85.1606 Y94.22 E0.99515 F6000 ; Print pattern wall
G1 X63.9474 Y115.4332 E0.99515 F6000 ; Print pattern wall
G1 E-0.5 F2100 ; Retract
G1 Z0.55 F7200 ; Z hop
G0 X64.5231 Y73.0068 F7200 ; Move to start next pattern wall
G1 Z0.45 F7200 ; Z hop return
G1 E0.5 F2100 ; Un-retract
G1 X85.7363 Y94.22 E0.99515 F6000 ; Print pattern wall
G1 X64.5231 Y115.4332 E0.99515 F6000 ; Print pattern wall
G1 E-0.5 F2100 ; Retract
G1 Z0.55 F7200 ; Z hop
G0 X65.0988 Y73.0068 F7200 ; Move to start next pattern wall
G1 Z0.45 F7200 ; Z hop return
G1 E0.5 F2100 ; Un-retract
G1 X86.312 Y94.22 E0.99515 F6000 ; Print pattern wall
G1 X65.0988 Y115.4332 E0.99515 F6000 ; Print pattern wall
G1 E-0.5 F2100 ; Retract
G1 Z0.55 F7200 ; Z hop
G0 X67.5488 Y73.0068 F7200 ; Move to next pattern
G1 Z0.45 F7200 ; Z hop return
G1 E0.5 F2100 ; Un-retract
M900 K0.01 ; Set linear advance k factor
M117 LA 0.01
G1 X88.762 Y94.22 E0.99515 F6000 ; Print pattern wall
G1 X67.5488 Y115.4332 E0.99515 F6000 ; Print pattern wall
G1 E-0.5 F2100 ; Retract
G1 Z0.55 F7200 ; Z hop
G0 X68.1245 Y73.0068 F7200 ; Move to start next pattern wall
G1 Z0.45 F7200 ; Z hop return
G1 E0.5 F2100 ; Un-retract
G1 X89.3377 Y94.22 E0.99515 F6000 ; Print pattern wall
G1 X68.1245 Y115.4332 E0.99515 F6000 ; Print pattern wall
G1 E-0.5 F2100 ; Retract
G1 Z0.55 F7200 ; Z hop
G0 X68.7002 Y73.0068 F7200 ; Move to start next pattern wall
G1 Z0.45 F7200 ; Z hop return
G1 E0.5 F2100 ; Un-retract
G1 X89.9134 Y94.22 E0.99515 F6000 ; Print pattern wall
G1 X68.7002 Y115.4332 E0.99515 F6000 ; Print pattern wall
G1 E-0.5 F2100 ; Retract
G1 Z0.55 F7200 ; Z hop
G0 X71.1502 Y73.0068 F7200 ; Move to next pattern
G1 Z0.45 F7200 ; Z hop return
G1 E0.5 F2100 ; Un-retract
M900 K0.015 ; Set linear advance k factor
M117 LA 0.015
G1 X92.3634 Y94.22 E0.99515 F6000 ; Print pattern wall
G1 X71.1502 Y115.4332 E0.99515 F6000 ; Print pattern wall
G1 E-0.5 F2100 ; Retract
G1 Z0.55 F7200 ; Z hop
G0 X71.7259 Y73.0068 F7200 ; Move to start next pattern wall
G1 Z0.45 F7200 ; Z hop return
G1 E0.5 F2100 ; Un-retract
G1 X92.9391 Y94.22 E0.99515 F6000 ; Print pattern wall
G1 X71.7259 Y115.4332 E0.99515 F6000 ; Print pattern wall
G1 E-0.5 F2100 ; Retract
G1 Z0.55 F7200 ; Z hop
G0 X72.3016 Y73.0068 F7200 ; Move to start next pattern wall
G1 Z0.45 F7200 ; Z hop return
G1 E0.5 F2100 ; Un-retract
G1 X93.5148 Y94.22 E0.99515 F6000 ; Print pattern wall
G1 X72.3016 Y115.4332 E0.99515 F6000 ; Print pattern wall
G1 E-0.5 F2100 ; Retract
G1 Z0.55 F7200 ; Z hop
G0 X74.7516 Y73.0068 F7200 ; Move to next pattern
G1 Z0.45 F7200 ; Z hop return
G1 E0.5 F2100 ; Un-retract
M900 K0.02 ; Set linear advance k factor
M117 LA 0.02
G1 X95.9648 Y94.22 E0.99515 F6000 ; Print pattern wall
G1 X74.7516 Y115.4332 E0.99515 F6000 ; Print pattern wall
G1 E-0.5 F2100 ; Retract
G1 Z0.55 F7200 ; Z hop
G0 X75.3273 Y73.0068 F7200 ; Move to start next pattern wall
G1 Z0.45 F7200 ; Z hop return
G1 E0.5 F2100 ; Un-retract
G1 X96.5405 Y94.22 E0.99515 F6000 ; Print pattern wall
G1 X75.3273 Y115.4332 E0.99515 F6000 ; Print pattern wall
G1 E-0.5 F2100 ; Retract
G1 Z0.55 F7200 ; Z hop
G0 X75.903 Y73.0068 F7200 ; Move to start next pattern wall
G1 Z0.45 F7200 ; Z hop return
G1 E0.5 F2100 ; Un-retract
G1 X97.1162 Y94.22 E0.99515 F6000 ; Print pattern wall
G1 X75.903 Y115.4332 E0.99515 F6000 ; Print pattern wall
G1 E-0.5 F2100 ; Retract
G1 Z0.55 F7200 ; Z hop
G0 X78.353 Y73.0068 F7200 ; Move to next pattern
G1 Z0.45 F7200 ; Z hop return
G1 E0.5 F2100 ; Un-retract
M900 K0.025 ; Set linear advance k factor
M117 LA 0.025
G1 X99.5662 Y94.22 E0.99515 F6000 ; Print pattern wall
G1 X78.353 Y115.4332 E0.99515 F6000 ; Print pattern wall
G1 E-0.5 F2100 ; Retract
G1 Z0.55 F7200 ; Z hop
G0 X78.9287 Y73.0068 F7200 ; Move to start next pattern wall
G1 Z0.45 F7200 ; Z hop return
G1 E0.5 F2100 ; Un-retract
G1 X100.1419 Y94.22 E0.99515 F6000 ; Print pattern wall
G1 X78.9287 Y115.4332 E0.99515 F6000 ; Print pattern wall
G1 E-0.5 F2100 ; Retract
G1 Z0.55 F7200 ; Z hop
G0 X79.5044 Y73.0068 F7200 ; Move to start next pattern wall
G1 Z0.45 F7200 ; Z hop return
G1 E0.5 F2100 ; Un-retract
G1 X100.7176 Y94.22 E0.99515 F6000 ; Print pattern wall
G1 X79.5044 Y115.4332 E0.99515 F6000 ; Print pattern wall
G1 E-0.5 F2100 ; Retract
G1 Z0.55 F7200 ; Z hop
G0 X81.9544 Y73.0068 F7200 ; Move to next pattern
G1 Z0.45 F7200 ; Z hop return
G1 E0.5 F2100 ; Un-retract
M900 K0.03 ; Set linear advance k factor
M117 LA 0.03
G1 X103.1676 Y94.22 E0.99515 F6000 ; Print pattern wall
G1 X81.9544 Y115.4332 E0.99515 F6000 ; Print pattern wall
G1 E-0.5 F2100 ; Retract
G1 Z0.55 F7200 ; Z hop
G0 X82.5301 Y73.0068 F7200 ; Move to start next pattern wall
G1 Z0.45 F7200 ; Z hop return
G1 E0.5 F2100 ; Un-retract
G1 X103.7433 Y94.22 E0.99515 F6000 ; Print pattern wall
G1 X82.5301 Y115.4332 E0.99515 F6000 ; Print pattern wall
G1 E-0.5 F2100 ; Retract
G1 Z0.55 F7200 ; Z hop
G0 X83.1058 Y73.0068 F7200 ; Move to start next pattern wall
G1 Z0.45 F7200 ; Z hop return
G1 E0.5 F2100 ; Un-retract
G1 X104.319 Y94.22 E0.99515 F6000 ; Print pattern wall
G1 X83.1058 Y115.4332 E0.99515 F6000 ; Print pattern wall
G1 E-0.5 F2100 ; Retract
G1 Z0.55 F7200 ; Z hop
G0 X85.5558 Y73.0068 F7200 ; Move to next pattern
G1 Z0.45 F7200 ; Z hop return
G1 E0.5 F2100 ; Un-retract
M900 K0.035 ; Set linear advance k factor
M117 LA 0.035
G1 X106.769 Y94.22 E0.99515 F6000 ; Print pattern wall
G1 X85.5558 Y115.4332 E0.99515 F6000 ; Print pattern wall
G1 E-0.5 F2100 ; Retract
G1 Z0.55 F7200 ; Z hop
G0 X86.1315 Y73.0068 F7200 ; Move to start next pattern wall
G1 Z0.45 F7200 ; Z hop return
G1 E0.5 F2100 ; Un-retract
G1 X107.3447 Y94.22 E0.99515 F6000 ; Print pattern wall
G1 X86.1315 Y115.4332 E0.99515 F6000 ; Print pattern wall
G1 E-0.5 F2100 ; Retract
G1 Z0.55 F7200 ; Z hop
G0 X86.7072 Y73.0068 F7200 ; Move to start next pattern wall
G1 Z0.45 F7200 ; Z hop return
G1 E0.5 F2100 ; Un-retract
G1 X107.9204 Y94.22 E0.99515 F6000 ; Print pattern wall
G1 X86.7072 Y115.4332 E0.99515 F6000 ; Print pattern wall
G1 E-0.5 F2100 ; Retract
G1 Z0.55 F7200 ; Z hop
G0 X89.1572 Y73.0068 F7200 ; Move to next pattern
G1 Z0.45 F7200 ; Z hop return
G1 E0.5 F2100 ; Un-retract
M900 K0.04 ; Set linear advance k factor
M117 LA 0.04
G1 X110.3704 Y94.22 E0.99515 F6000 ; Print pattern wall
G1 X89.1572 Y115.4332 E0.99515 F6000 ; Print pattern wall
G1 E-0.5 F2100 ; Retract
G1 Z0.55 F7200 ; Z hop
G0 X89.7329 Y73.0068 F7200 ; Move to start next pattern wall
G1 Z0.45 F7200 ; Z hop return
G1 E0.5 F2100 ; Un-retract
G1 X110.9461 Y94.22 E0.99515 F6000 ; Print pattern wall
G1 X89.7329 Y115.4332 E0.99515 F6000 ; Print pattern wall
G1 E-0.5 F2100 ; Retract
G1 Z0.55 F7200 ; Z hop
G0 X90.3086 Y73.0068 F7200 ; Move to start next pattern wall
G1 Z0.45 F7200 ; Z hop return
G1 E0.5 F2100 ; Un-retract
G1 X111.5218 Y94.22 E0.99515 F6000 ; Print pattern wall
G1 X90.3086 Y115.4332 E0.99515 F6000 ; Print pattern wall
G1 E-0.5 F2100 ; Retract
G1 Z0.55 F7200 ; Z hop
G0 X92.7586 Y73.0068 F7200 ; Move to next pattern
G1 Z0.45 F7200 ; Z hop return
G1 E0.5 F2100 ; Un-retract
M900 K0.045 ; Set linear advance k factor
M117 LA 0.045
G1 X113.9718 Y94.22 E0.99515 F6000 ; Print pattern wall
G1 X92.7586 Y115.4332 E0.99515 F6000 ; Print pattern wall
G1 E-0.5 F2100 ; Retract
G1 Z0.55 F7200 ; Z hop
G0 X93.3343 Y73.0068 F7200 ; Move to start next pattern wall
G1 Z0.45 F7200 ; Z hop return
G1 E0.5 F2100 ; Un-retract
G1 X114.5475 Y94.22 E0.99515 F6000 ; Print pattern wall
G1 X93.3343 Y115.4332 E0.99515 F6000 ; Print pattern wall
G1 E-0.5 F2100 ; Retract
G1 Z0.55 F7200 ; Z hop
G0 X93.91 Y73.0068 F7200 ; Move to start next pattern wall
G1 Z0.45 F7200 ; Z hop return
G1 E0.5 F2100 ; Un-retract
G1 X115.1232 Y94.22 E0.99515 F6000 ; Print pattern wall
G1 X93.91 Y115.4332 E0.99515 F6000 ; Print pattern wall
G1 E-0.5 F2100 ; Retract
G1 Z0.55 F7200 ; Z hop
G0 X96.36 Y73.0068 F7200 ; Move to next pattern
G1 Z0.45 F7200 ; Z hop return
G1 E0.5 F2100 ; Un-retract
M900 K0.05 ; Set linear advance k factor
M117 LA 0.05
G1 X117.5732 Y94.22 E0.99515 F6000 ; Print pattern wall
G1 X96.36 Y115.4332 E0.99515 F6000 ; Print pattern wall
G1 E-0.5 F2100 ; Retract
G1 Z0.55 F7200 ; Z hop
G0 X96.9357 Y73.0068 F7200 ; Move to start next pattern wall
G1 Z0.45 F7200 ; Z hop return
G1 E0.5 F2100 ; Un-retract
G1 X118.1489 Y94.22 E0.99515 F6000 ; Print pattern wall
G1 X96.9357 Y115.4332 E0.99515 F6000 ; Print pattern wall
G1 E-0.5 F2100 ; Retract
G1 Z0.55 F7200 ; Z hop
G0 X97.5113 Y73.0068 F7200 ; Move to start next pattern wall
G1 Z0.45 F7200 ; Z hop return
G1 E0.5 F2100 ; Un-retract
G1 X118.7246 Y94.22 E0.99515 F6000 ; Print pattern wall
G1 X97.5113 Y115.4332 E0.99515 F6000 ; Print pattern wall
G1 E-0.5 F2100 ; Retract
G1 Z0.55 F7200 ; Z hop
G0 X99.9613 Y73.0068 F7200 ; Move to next pattern
G1 Z0.45 F7200 ; Z hop return
G1 E0.5 F2100 ; Un-retract
M900 K0.055 ; Set linear advance k factor
M117 LA 0.055
G1 X121.1746 Y94.22 E0.99515 F6000 ; Print pattern wall
G1 X99.9613 Y115.4332 E0.99515 F6000 ; Print pattern wall
G1 E-0.5 F2100 ; Retract
G1 Z0.55 F7200 ; Z hop
G0 X100.537 Y73.0068 F7200 ; Move to start next pattern wall
G1 Z0.45 F7200 ; Z hop return
G1 E0.5 F2100 ; Un-retract
G1 X121.7502 Y94.22 E0.99515 F6000 ; Print pattern wall
G1 X100.537 Y115.4332 E0.99515 F6000 ; Print pattern wall
G1 E-0.5 F2100 ; Retract
G1 Z0.55 F7200 ; Z hop
G0 X101.1127 Y73.0068 F7200 ; Move to start next pattern wall
G1 Z0.45 F7200 ; Z hop return
G1 E0.5 F2100 ; Un-retract
G1 X122.3259 Y94.22 E0.99515 F6000 ; Print pattern wall
G1 X101.1127 Y115.4332 E0.99515 F6000 ; Print pattern wall
G1 E-0.5 F2100 ; Retract
G1 Z0.55 F7200 ; Z hop
G0 X103.5627 Y73.0068 F7200 ; Move to next pattern
G1 Z0.45 F7200 ; Z hop return
G1 E0.5 F2100 ; Un-retract
M900 K0.06 ; Set linear advance k factor
M117 LA 0.06
G1 X124.7759 Y94.22 E0.99515 F6000 ; Print pattern wall
G1 X103.5627 Y115.4332 E0.99515 F6000 ; Print pattern wall
G1 E-0.5 F2100 ; Retract
G1 Z0.55 F7200 ; Z hop
G0 X104.1384 Y73.0068 F7200 ; Move to start next pattern wall
G1 Z0.45 F7200 ; Z hop return
G1 E0.5 F2100 ; Un-retract
G1 X125.3516 Y94.22 E0.99515 F6000 ; Print pattern wall
G1 X104.1384 Y115.4332 E0.99515 F6000 ; Print pattern wall
G1 E-0.5 F2100 ; Retract
G1 Z0.55 F7200 ; Z hop
G0 X104.7141 Y73.0068 F7200 ; Move to start next pattern wall
G1 Z0.45 F7200 ; Z hop return
G1 E0.5 F2100 ; Un-retract
G1 X125.9273 Y94.22 E0.99515 F6000 ; Print pattern wall
G1 X104.7141 Y115.4332 E0.99515 F6000 ; Print pattern wall
G1 E-0.5 F2100 ; Retract
G1 Z0.55 F7200 ; Z hop
G0 X107.1641 Y73.0068 F7200 ; Move to next pattern
G1 Z0.45 F7200 ; Z hop return
G1 E0.5 F2100 ; Un-retract
M900 K0.065 ; Set linear advance k factor
M117 LA 0.065
G1 X128.3773 Y94.22 E0.99515 F6000 ; Print pattern wall
G1 X107.1641 Y115.4332 E0.99515 F6000 ; Print pattern wall
G1 E-0.5 F2100 ; Retract
G1 Z0.55 F7200 ; Z hop
G0 X107.7398 Y73.0068 F7200 ; Move to start next pattern wall
G1 Z0.45 F7200 ; Z hop return
G1 E0.5 F2100 ; Un-retract
G1 X128.953 Y94.22 E0.99515 F6000 ; Print pattern wall
G1 X107.7398 Y115.4332 E0.99515 F6000 ; Print pattern wall
G1 E-0.5 F2100 ; Retract
G1 Z0.55 F7200 ; Z hop
G0 X108.3155 Y73.0068 F7200 ; Move to start next pattern wall
G1 Z0.45 F7200 ; Z hop return
G1 E0.5 F2100 ; Un-retract
G1 X129.5287 Y94.22 E0.99515 F6000 ; Print pattern wall
G1 X108.3155 Y115.4332 E0.99515 F6000 ; Print pattern wall
G1 E-0.5 F2100 ; Retract
G1 Z0.55 F7200 ; Z hop
G0 X110.7655 Y73.0068 F7200 ; Move to next pattern
G1 Z0.45 F7200 ; Z hop return
G1 E0.5 F2100 ; Un-retract
M900 K0.07 ; Set linear advance k factor
M117 LA 0.07
G1 X131.9787 Y94.22 E0.99515 F6000 ; Print pattern wall
G1 X110.7655 Y115.4332 E0.99515 F6000 ; Print pattern wall
G1 E-0.5 F2100 ; Retract
G1 Z0.55 F7200 ; Z hop
G0 X111.3412 Y73.0068 F7200 ; Move to start next pattern wall
G1 Z0.45 F7200 ; Z hop return
G1 E0.5 F2100 ; Un-retract
G1 X132.5544 Y94.22 E0.99515 F6000 ; Print pattern wall
G1 X111.3412 Y115.4332 E0.99515 F6000 ; Print pattern wall
G1 E-0.5 F2100 ; Retract
G1 Z0.55 F7200 ; Z hop
G0 X111.9169 Y73.0068 F7200 ; Move to start next pattern wall
G1 Z0.45 F7200 ; Z hop return
G1 E0.5 F2100 ; Un-retract
G1 X133.1301 Y94.22 E0.99515 F6000 ; Print pattern wall
G1 X111.9169 Y115.4332 E0.99515 F6000 ; Print pattern wall
G1 E-0.5 F2100 ; Retract
G1 Z0.55 F7200 ; Z hop
G0 X114.3669 Y73.0068 F7200 ; Move to next pattern
G1 Z0.45 F7200 ; Z hop return
G1 E0.5 F2100 ; Un-retract
M900 K0.075 ; Set linear advance k factor
M117 LA 0.075
G1 X135.5801 Y94.22 E0.99515 F6000 ; Print pattern wall
G1 X114.3669 Y115.4332 E0.99515 F6000 ; Print pattern wall
G1 E-0.5 F2100 ; Retract
G1 Z0.55 F7200 ; Z hop
G0 X114.9426 Y73.0068 F7200 ; Move to start next pattern wall
G1 Z0.45 F7200 ; Z hop return
G1 E0.5 F2100 ; Un-retract
G1 X136.1558 Y94.22 E0.99515 F6000 ; Print pattern wall
G1 X114.9426 Y115.4332 E0.99515 F6000 ; Print pattern wall
G1 E-0.5 F2100 ; Retract
G1 Z0.55 F7200 ; Z hop
G0 X115.5183 Y73.0068 F7200 ; Move to start next pattern wall
G1 Z0.45 F7200 ; Z hop return
G1 E0.5 F2100 ; Un-retract
G1 X136.7315 Y94.22 E0.99515 F6000 ; Print pattern wall
G1 X115.5183 Y115.4332 E0.99515 F6000 ; Print pattern wall
G1 E-0.5 F2100 ; Retract
G1 Z0.55 F7200 ; Z hop
G0 X117.9683 Y73.0068 F7200 ; Move to next pattern
G1 Z0.45 F7200 ; Z hop return
G1 E0.5 F2100 ; Un-retract
M900 K0.08 ; Set linear advance k factor
M117 LA 0.08
G1 X139.1815 Y94.22 E0.99515 F6000 ; Print pattern wall
G1 X117.9683 Y115.4332 E0.99515 F6000 ; Print pattern wall
G1 E-0.5 F2100 ; Retract
G1 Z0.55 F7200 ; Z hop
G0 X118.544 Y73.0068 F7200 ; Move to start next pattern wall
G1 Z0.45 F7200 ; Z hop return
G1 E0.5 F2100 ; Un-retract
G1 X139.7572 Y94.22 E0.99515 F6000 ; Print pattern wall
G1 X118.544 Y115.4332 E0.99515 F6000 ; Print pattern wall
G1 E-0.5 F2100 ; Retract
G1 Z0.55 F7200 ; Z hop
G0 X119.1197 Y73.0068 F7200 ; Move to start next pattern wall
G1 Z0.45 F7200 ; Z hop return
G1 E0.5 F2100 ; Un-retract
G1 X140.3329 Y94.22 E0.99515 F6000 ; Print pattern wall
G1 X119.1197 Y115.4332 E0.99515 F6000 ; Print pattern wall
G1 E-0.5 F2100 ; Retract
G1 Z0.55 F7200 ; Z hop
G0 X60.346 Y73.0068 F7200 ; Move back to start position
G1 Z0.45 F7200 ; Z hop return
G1 E0.5 F2100 ; Un-retract
G0 Z0.65 F7200 ; Move to layer height
M900 K0 ; Set linear advance k factor
M117 LA 0
G1 X81.5592 Y94.22 E0.99515 F6000 ; Print pattern wall
G1 X60.346 Y115.4332 E0.99515 F6000 ; Print pattern wall
G1 E-0.5 F2100 ; Retract
G1 Z0.75 F7200 ; Z hop
G0 X60.9217 Y73.0068 F7200 ; Move to start next pattern wall
G1 Z0.65 F7200 ; Z hop return
G1 E0.5 F2100 ; Un-retract
G1 X82.1349 Y94.22 E0.99515 F6000 ; Print pattern wall
G1 X60.9217 Y115.4332 E0.99515 F6000 ; Print pattern wall
G1 E-0.5 F2100 ; Retract
G1 Z0.75 F7200 ; Z hop
G0 X61.4974 Y73.0068 F7200 ; Move to start next pattern wall
G1 Z0.65 F7200 ; Z hop return
G1 E0.5 F2100 ; Un-retract
G1 X82.7106 Y94.22 E0.99515 F6000 ; Print pattern wall
G1 X61.4974 Y115.4332 E0.99515 F6000 ; Print pattern wall
G1 E-0.5 F2100 ; Retract
G1 Z0.75 F7200 ; Z hop
G0 X63.9474 Y73.0068 F7200 ; Move to next pattern
G1 Z0.65 F7200 ; Z hop return
G1 E0.5 F2100 ; Un-retract
M900 K0.005 ; Set linear advance k factor
M117 LA 0.005
G1 X85.1606 Y94.22 E0.99515 F6000 ; Print pattern wall
G1 X63.9474 Y115.4332 E0.99515 F6000 ; Print pattern wall
G1 E-0.5 F2100 ; Retract
G1 Z0.75 F7200 ; Z hop
G0 X64.5231 Y73.0068 F7200 ; Move to start next pattern wall
G1 Z0.65 F7200 ; Z hop return
G1 E0.5 F2100 ; Un-retract
G1 X85.7363 Y94.22 E0.99515 F6000 ; Print pattern wall
G1 X64.5231 Y115.4332 E0.99515 F6000 ; Print pattern wall
G1 E-0.5 F2100 ; Retract
G1 Z0.75 F7200 ; Z hop
G0 X65.0988 Y73.0068 F7200 ; Move to start next pattern wall
G1 Z0.65 F7200 ; Z hop return
G1 E0.5 F2100 ; Un-retract
G1 X86.312 Y94.22 E0.99515 F6000 ; Print pattern wall
G1 X65.0988 Y115.4332 E0.99515 F6000 ; Print pattern wall
G1 E-0.5 F2100 ; Retract
G1 Z0.75 F7200 ; Z hop
G0 X67.5488 Y73.0068 F7200 ; Move to next pattern
G1 Z0.65 F7200 ; Z hop return
G1 E0.5 F2100 ; Un-retract
M900 K0.01 ; Set linear advance k factor
M117 LA 0.01
G1 X88.762 Y94.22 E0.99515 F6000 ; Print pattern wall
G1 X67.5488 Y115.4332 E0.99515 F6000 ; Print pattern wall
G1 E-0.5 F2100 ; Retract
G1 Z0.75 F7200 ; Z hop
G0 X68.1245 Y73.0068 F7200 ; Move to start next pattern wall
G1 Z0.65 F7200 ; Z hop return
G1 E0.5 F2100 ; Un-retract
G1 X89.3377 Y94.22 E0.99515 F6000 ; Print pattern wall
G1 X68.1245 Y115.4332 E0.99515 F6000 ; Print pattern wall
G1 E-0.5 F2100 ; Retract
G1 Z0.75 F7200 ; Z hop
G0 X68.7002 Y73.0068 F7200 ; Move to start next pattern wall
G1 Z0.65 F7200 ; Z hop return
G1 E0.5 F2100 ; Un-retract
G1 X89.9134 Y94.22 E0.99515 F6000 ; Print pattern wall
G1 X68.7002 Y115.4332 E0.99515 F6000 ; Print pattern wall
G1 E-0.5 F2100 ; Retract
G1 Z0.75 F7200 ; Z hop
G0 X71.1502 Y73.0068 F7200 ; Move to next pattern
G1 Z0.65 F7200 ; Z hop return
G1 E0.5 F2100 ; Un-retract
M900 K0.015 ; Set linear advance k factor
M117 LA 0.015
G1 X92.3634 Y94.22 E0.99515 F6000 ; Print pattern wall
G1 X71.1502 Y115.4332 E0.99515 F6000 ; Print pattern wall
G1 E-0.5 F2100 ; Retract
G1 Z0.75 F7200 ; Z hop
G0 X71.7259 Y73.0068 F7200 ; Move to start next pattern wall
G1 Z0.65 F7200 ; Z hop return
G1 E0.5 F2100 ; Un-retract
G1 X92.9391 Y94.22 E0.99515 F6000 ; Print pattern wall
G1 X71.7259 Y115.4332 E0.99515 F6000 ; Print pattern wall
G1 E-0.5 F2100 ; Retract
G1 Z0.75 F7200 ; Z hop
G0 X72.3016 Y73.0068 F7200 ; Move to start next pattern wall
G1 Z0.65 F7200 ; Z hop return
G1 E0.5 F2100 ; Un-retract
G1 X93.5148 Y94.22 E0.99515 F6000 ; Print pattern wall
G1 X72.3016 Y115.4332 E0.99515 F6000 ; Print pattern wall
G1 E-0.5 F2100 ; Retract
G1 Z0.75 F7200 ; Z hop
G0 X74.7516 Y73.0068 F7200 ; Move to next pattern
G1 Z0.65 F7200 ; Z hop return
G1 E0.5 F2100 ; Un-retract
M900 K0.02 ; Set linear advance k factor
M117 LA 0.02
G1 X95.9648 Y94.22 E0.99515 F6000 ; Print pattern wall
G1 X74.7516 Y115.4332 E0.99515 F6000 ; Print pattern wall
G1 E-0.5 F2100 ; Retract
G1 Z0.75 F7200 ; Z hop
G0 X75.3273 Y73.0068 F7200 ; Move to start next pattern wall
G1 Z0.65 F7200 ; Z hop return
G1 E0.5 F2100 ; Un-retract
G1 X96.5405 Y94.22 E0.99515 F6000 ; Print pattern wall
G1 X75.3273 Y115.4332 E0.99515 F6000 ; Print pattern wall
G1 E-0.5 F2100 ; Retract
G1 Z0.75 F7200 ; Z hop
G0 X75.903 Y73.0068 F7200 ; Move to start next pattern wall
G1 Z0.65 F7200 ; Z hop return
G1 E0.5 F2100 ; Un-retract
G1 X97.1162 Y94.22 E0.99515 F6000 ; Print pattern wall
G1 X75.903 Y115.4332 E0.99515 F6000 ; Print pattern wall
G1 E-0.5 F2100 ; Retract
G1 Z0.75 F7200 ; Z hop
G0 X78.353 Y73.0068 F7200 ; Move to next pattern
G1 Z0.65 F7200 ; Z hop return
G1 E0.5 F2100 ; Un-retract
M900 K0.025 ; Set linear advance k factor
M117 LA 0.025
G1 X99.5662 Y94.22 E0.99515 F6000 ; Print pattern wall
G1 X78.353 Y115.4332 E0.99515 F6000 ; Print pattern wall
G1 E-0.5 F2100 ; Retract
G1 Z0.75 F7200 ; Z hop
G0 X78.9287 Y73.0068 F7200 ; Move to start next pattern wall
G1 Z0.65 F7200 ; Z hop return
G1 E0.5 F2100 ; Un-retract
G1 X100.1419 Y94.22 E0.99515 F6000 ; Print pattern wall
G1 X78.9287 Y115.4332 E0.99515 F6000 ; Print pattern wall
G1 E-0.5 F2100 ; Retract
G1 Z0.75 F7200 ; Z hop
G0 X79.5044 Y73.0068 F7200 ; Move to start next pattern wall
G1 Z0.65 F7200 ; Z hop return
G1 E0.5 F2100 ; Un-retract
G1 X100.7176 Y94.22 E0.99515 F6000 ; Print pattern wall
G1 X79.5044 Y115.4332 E0.99515 F6000 ; Print pattern wall
G1 E-0.5 F2100 ; Retract
G1 Z0.75 F7200 ; Z hop
G0 X81.9544 Y73.0068 F7200 ; Move to next pattern
G1 Z0.65 F7200 ; Z hop return
G1 E0.5 F2100 ; Un-retract
M900 K0.03 ; Set linear advance k factor
M117 LA 0.03
G1 X103.1676 Y94.22 E0.99515 F6000 ; Print pattern wall
G1 X81.9544 Y115.4332 E0.99515 F6000 ; Print pattern wall
G1 E-0.5 F2100 ; Retract
G1 Z0.75 F7200 ; Z hop
G0 X82.5301 Y73.0068 F7200 ; Move to start next pattern wall
G1 Z0.65 F7200 ; Z hop return
G1 E0.5 F2100 ; Un-retract
G1 X103.7433 Y94.22 E0.99515 F6000 ; Print pattern wall
G1 X82.5301 Y115.4332 E0.99515 F6000 ; Print pattern wall
G1 E-0.5 F2100 ; Retract
G1 Z0.75 F7200 ; Z hop
G0 X83.1058 Y73.0068 F7200 ; Move to start next pattern wall
G1 Z0.65 F7200 ; Z hop return
G1 E0.5 F2100 ; Un-retract
G1 X104.319 Y94.22 E0.99515 F6000 ; Print pattern wall
G1 X83.1058 Y115.4332 E0.99515 F6000 ; Print pattern wall
G1 E-0.5 F2100 ; Retract
G1 Z0.75 F7200 ; Z hop
G0 X85.5558 Y73.0068 F7200 ; Move to next pattern
G1 Z0.65 F7200 ; Z hop return
G1 E0.5 F2100 ; Un-retract
M900 K0.035 ; Set linear advance k factor
M117 LA 0.035
G1 X106.769 Y94.22 E0.99515 F6000 ; Print pattern wall
G1 X85.5558 Y115.4332 E0.99515 F6000 ; Print pattern wall
G1 E-0.5 F2100 ; Retract
G1 Z0.75 F7200 ; Z hop
G0 X86.1315 Y73.0068 F7200 ; Move to start next pattern wall
G1 Z0.65 F7200 ; Z hop return
G1 E0.5 F2100 ; Un-retract
G1 X107.3447 Y94.22 E0.99515 F6000 ; Print pattern wall
G1 X86.1315 Y115.4332 E0.99515 F6000 ; Print pattern wall
G1 E-0.5 F2100 ; Retract
G1 Z0.75 F7200 ; Z hop
G0 X86.7072 Y73.0068 F7200 ; Move to start next pattern wall
G1 Z0.65 F7200 ; Z hop return
G1 E0.5 F2100 ; Un-retract
G1 X107.9204 Y94.22 E0.99515 F6000 ; Print pattern wall
G1 X86.7072 Y115.4332 E0.99515 F6000 ; Print pattern wall
G1 E-0.5 F2100 ; Retract
G1 Z0.75 F7200 ; Z hop
G0 X89.1572 Y73.0068 F7200 ; Move to next pattern
G1 Z0.65 F7200 ; Z hop return
G1 E0.5 F2100 ; Un-retract
M900 K0.04 ; Set linear advance k factor
M117 LA 0.04
G1 X110.3704 Y94.22 E0.99515 F6000 ; Print pattern wall
G1 X89.1572 Y115.4332 E0.99515 F6000 ; Print pattern wall
G1 E-0.5 F2100 ; Retract
G1 Z0.75 F7200 ; Z hop
G0 X89.7329 Y73.0068 F7200 ; Move to start next pattern wall
G1 Z0.65 F7200 ; Z hop return
G1 E0.5 F2100 ; Un-retract
G1 X110.9461 Y94.22 E0.99515 F6000 ; Print pattern wall
G1 X89.7329 Y115.4332 E0.99515 F6000 ; Print pattern wall
G1 E-0.5 F2100 ; Retract
G1 Z0.75 F7200 ; Z hop
G0 X90.3086 Y73.0068 F7200 ; Move to start next pattern wall
G1 Z0.65 F7200 ; Z hop return
G1 E0.5 F2100 ; Un-retract
G1 X111.5218 Y94.22 E0.99515 F6000 ; Print pattern wall
G1 X90.3086 Y115.4332 E0.99515 F6000 ; Print pattern wall
G1 E-0.5 F2100 ; Retract
G1 Z0.75 F7200 ; Z hop
G0 X92.7586 Y73.0068 F7200 ; Move to next pattern
G1 Z0.65 F7200 ; Z hop return
G1 E0.5 F2100 ; Un-retract
M900 K0.045 ; Set linear advance k factor
M117 LA 0.045
G1 X113.9718 Y94.22 E0.99515 F6000 ; Print pattern wall
G1 X92.7586 Y115.4332 E0.99515 F6000 ; Print pattern wall
G1 E-0.5 F2100 ; Retract
G1 Z0.75 F7200 ; Z hop
G0 X93.3343 Y73.0068 F7200 ; Move to start next pattern wall
G1 Z0.65 F7200 ; Z hop return
G1 E0.5 F2100 ; Un-retract
G1 X114.5475 Y94.22 E0.99515 F6000 ; Print pattern wall
G1 X93.3343 Y115.4332 E0.99515 F6000 ; Print pattern wall
G1 E-0.5 F2100 ; Retract
G1 Z0.75 F7200 ; Z hop
G0 X93.91 Y73.0068 F7200 ; Move to start next pattern wall
G1 Z0.65 F7200 ; Z hop return
G1 E0.5 F2100 ; Un-retract
G1 X115.1232 Y94.22 E0.99515 F6000 ; Print pattern wall
G1 X93.91 Y115.4332 E0.99515 F6000 ; Print pattern wall
G1 E-0.5 F2100 ; Retract
G1 Z0.75 F7200 ; Z hop
G0 X96.36 Y73.0068 F7200 ; Move to next pattern
G1 Z0.65 F7200 ; Z hop return
G1 E0.5 F2100 ; Un-retract
M900 K0.05 ; Set linear advance k factor
M117 LA 0.05
G1 X117.5732 Y94.22 E0.99515 F6000 ; Print pattern wall
G1 X96.36 Y115.4332 E0.99515 F6000 ; Print pattern wall
G1 E-0.5 F2100 ; Retract
G1 Z0.75 F7200 ; Z hop
G0 X96.9357 Y73.0068 F7200 ; Move to start next pattern wall
G1 Z0.65 F7200 ; Z hop return
G1 E0.5 F2100 ; Un-retract
G1 X118.1489 Y94.22 E0.99515 F6000 ; Print pattern wall
G1 X96.9357 Y115.4332 E0.99515 F6000 ; Print pattern wall
G1 E-0.5 F2100 ; Retract
G1 Z0.75 F7200 ; Z hop
G0 X97.5113 Y73.0068 F7200 ; Move to start next pattern wall
G1 Z0.65 F7200 ; Z hop return
G1 E0.5 F2100 ; Un-retract
G1 X118.7246 Y94.22 E0.99515 F6000 ; Print pattern wall
G1 X97.5113 Y115.4332 E0.99515 F6000 ; Print pattern wall
G1 E-0.5 F2100 ; Retract
G1 Z0.75 F7200 ; Z hop
G0 X99.9613 Y73.0068 F7200 ; Move to next pattern
G1 Z0.65 F7200 ; Z hop return
G1 E0.5 F2100 ; Un-retract
M900 K0.055 ; Set linear advance k factor
M117 LA 0.055
G1 X121.1746 Y94.22 E0.99515 F6000 ; Print pattern wall
G1 X99.9613 Y115.4332 E0.99515 F6000 ; Print pattern wall
G1 E-0.5 F2100 ; Retract
G1 Z0.75 F7200 ; Z hop
G0 X100.537 Y73.0068 F7200 ; Move to start next pattern wall
G1 Z0.65 F7200 ; Z hop return
G1 E0.5 F2100 ; Un-retract
G1 X121.7502 Y94.22 E0.99515 F6000 ; Print pattern wall
G1 X100.537 Y115.4332 E0.99515 F6000 ; Print pattern wall
G1 E-0.5 F2100 ; Retract
G1 Z0.75 F7200 ; Z hop
G0 X101.1127 Y73.0068 F7200 ; Move to start next pattern wall
G1 Z0.65 F7200 ; Z hop return
G1 E0.5 F2100 ; Un-retract
G1 X122.3259 Y94.22 E0.99515 F6000 ; Print pattern wall
G1 X101.1127 Y115.4332 E0.99515 F6000 ; Print pattern wall
G1 E-0.5 F2100 ; Retract
G1 Z0.75 F7200 ; Z hop
G0 X103.5627 Y73.0068 F7200 ; Move to next pattern
G1 Z0.65 F7200 ; Z hop return
G1 E0.5 F2100 ; Un-retract
M900 K0.06 ; Set linear advance k factor
M117 LA 0.06
G1 X124.7759 Y94.22 E0.99515 F6000 ; Print pattern wall
G1 X103.5627 Y115.4332 E0.99515 F6000 ; Print pattern wall
G1 E-0.5 F2100 ; Retract
G1 Z0.75 F7200 ; Z hop
G0 X104.1384 Y73.0068 F7200 ; Move to start next pattern wall
G1 Z0.65 F7200 ; Z hop return
G1 E0.5 F2100 ; Un-retract
G1 X125.3516 Y94.22 E0.99515 F6000 ; Print pattern wall
G1 X104.1384 Y115.4332 E0.99515 F6000 ; Print pattern wall
G1 E-0.5 F2100 ; Retract
G1 Z0.75 F7200 ; Z hop
G0 X104.7141 Y73.0068 F7200 ; Move to start next pattern wall
G1 Z0.65 F7200 ; Z hop return
G1 E0.5 F2100 ; Un-retract
G1 X125.9273 Y94.22 E0.99515 F6000 ; Print pattern wall
G1 X104.7141 Y115.4332 E0.99515 F6000 ; Print pattern wall
G1 E-0.5 F2100 ; Retract
G1 Z0.75 F7200 ; Z hop
G0 X107.1641 Y73.0068 F7200 ; Move to next pattern
G1 Z0.65 F7200 ; Z hop return
G1 E0.5 F2100 ; Un-retract
M900 K0.065 ; Set linear advance k factor
M117 LA 0.065
G1 X128.3773 Y94.22 E0.99515 F6000 ; Print pattern wall
G1 X107.1641 Y115.4332 E0.99515 F6000 ; Print pattern wall
G1 E-0.5 F2100 ; Retract
G1 Z0.75 F7200 ; Z hop
G0 X107.7398 Y73.0068 F7200 ; Move to start next pattern wall
G1 Z0.65 F7200 ; Z hop return
G1 E0.5 F2100 ; Un-retract
G1 X128.953 Y94.22 E0.99515 F6000 ; Print pattern wall
G1 X107.7398 Y115.4332 E0.99515 F6000 ; Print pattern wall
G1 E-0.5 F2100 ; Retract
G1 Z0.75 F7200 ; Z hop
G0 X108.3155 Y73.0068 F7200 ; Move to start next pattern wall
G1 Z0.65 F7200 ; Z hop return
G1 E0.5 F2100 ; Un-retract
G1 X129.5287 Y94.22 E0.99515 F6000 ; Print pattern wall
G1 X108.3155 Y115.4332 E0.99515 F6000 ; Print pattern wall
G1 E-0.5 F2100 ; Retract
G1 Z0.75 F7200 ; Z hop
G0 X110.7655 Y73.0068 F7200 ; Move to next pattern
G1 Z0.65 F7200 ; Z hop return
G1 E0.5 F2100 ; Un-retract
M900 K0.07 ; Set linear advance k factor
M117 LA 0.07
G1 X131.9787 Y94.22 E0.99515 F6000 ; Print pattern wall
G1 X110.7655 Y115.4332 E0.99515 F6000 ; Print pattern wall
G1 E-0.5 F2100 ; Retract
G1 Z0.75 F7200 ; Z hop
G0 X111.3412 Y73.0068 F7200 ; Move to start next pattern wall
G1 Z0.65 F7200 ; Z hop return
G1 E0.5 F2100 ; Un-retract
G1 X132.5544 Y94.22 E0.99515 F6000 ; Print pattern wall
G1 X111.3412 Y115.4332 E0.99515 F6000 ; Print pattern wall
G1 E-0.5 F2100 ; Retract
G1 Z0.75 F7200 ; Z hop
G0 X111.9169 Y73.0068 F7200 ; Move to start next pattern wall
G1 Z0.65 F7200 ; Z hop return
G1 E0.5 F2100 ; Un-retract
G1 X133.1301 Y94.22 E0.99515 F6000 ; Print pattern wall
G1 X111.9169 Y115.4332 E0.99515 F6000 ; Print pattern wall
G1 E-0.5 F2100 ; Retract
G1 Z0.75 F7200 ; Z hop
G0 X114.3669 Y73.0068 F7200 ; Move to next pattern
G1 Z0.65 F7200 ; Z hop return
G1 E0.5 F2100 ; Un-retract
M900 K0.075 ; Set linear advance k factor
M117 LA 0.075
G1 X135.5801 Y94.22 E0.99515 F6000 ; Print pattern wall
G1 X114.3669 Y115.4332 E0.99515 F6000 ; Print pattern wall
G1 E-0.5 F2100 ; Retract
G1 Z0.75 F7200 ; Z hop
G0 X114.9426 Y73.0068 F7200 ; Move to start next pattern wall
G1 Z0.65 F7200 ; Z hop return
G1 E0.5 F2100 ; Un-retract
G1 X136.1558 Y94.22 E0.99515 F6000 ; Print pattern wall
G1 X114.9426 Y115.4332 E0.99515 F6000 ; Print pattern wall
G1 E-0.5 F2100 ; Retract
G1 Z0.75 F7200 ; Z hop
G0 X115.5183 Y73.0068 F7200 ; Move to start next pattern wall
G1 Z0.65 F7200 ; Z hop return
G1 E0.5 F2100 ; Un-retract
G1 X136.7315 Y94.22 E0.99515 F6000 ; Print pattern wall
G1 X115.5183 Y115.4332 E0.99515 F6000 ; Print pattern wall
G1 E-0.5 F2100 ; Retract
G1 Z0.75 F7200 ; Z hop
G0 X117.9683 Y73.0068 F7200 ; Move to next pattern
G1 Z0.65 F7200 ; Z hop return
G1 E0.5 F2100 ; Un-retract
M900 K0.08 ; Set linear advance k factor
M117 LA 0.08
G1 X139.1815 Y94.22 E0.99515 F6000 ; Print pattern wall
G1 X117.9683 Y115.4332 E0.99515 F6000 ; Print pattern wall
G1 E-0.5 F2100 ; Retract
G1 Z0.75 F7200 ; Z hop
G0 X118.544 Y73.0068 F7200 ; Move to start next pattern wall
G1 Z0.65 F7200 ; Z hop return
G1 E0.5 F2100 ; Un-retract
G1 X139.7572 Y94.22 E0.99515 F6000 ; Print pattern wall
G1 X118.544 Y115.4332 E0.99515 F6000 ; Print pattern wall
G1 E-0.5 F2100 ; Retract
G1 Z0.75 F7200 ; Z hop
G0 X119.1197 Y73.0068 F7200 ; Move to start next pattern wall
G1 Z0.65 F7200 ; Z hop return
G1 E0.5 F2100 ; Un-retract
G1 X140.3329 Y94.22 E0.99515 F6000 ; Print pattern wall
G1 X119.1197 Y115.4332 E0.99515 F6000 ; Print pattern wall
G1 E-0.5 F2100 ; Retract
G1 Z0.75 F7200 ; Z hop
G0 X60.346 Y73.0068 F7200 ; Move back to start position
G1 Z0.65 F7200 ; Z hop return
G1 E0.5 F2100 ; Un-retract
G0 Z0.85 F7200 ; Move to layer height
M900 K0 ; Set linear advance k factor
M117 LA 0
G1 X81.5592 Y94.22 E0.99515 F6000 ; Print pattern wall
G1 X60.346 Y115.4332 E0.99515 F6000 ; Print pattern wall
G1 E-0.5 F2100 ; Retract
G1 Z0.95 F7200 ; Z hop
G0 X60.9217 Y73.0068 F7200 ; Move to start next pattern wall
G1 Z0.85 F7200 ; Z hop return
G1 E0.5 F2100 ; Un-retract
G1 X82.1349 Y94.22 E0.99515 F6000 ; Print pattern wall
G1 X60.9217 Y115.4332 E0.99515 F6000 ; Print pattern wall
G1 E-0.5 F2100 ; Retract
G1 Z0.95 F7200 ; Z hop
G0 X61.4974 Y73.0068 F7200 ; Move to start next pattern wall
G1 Z0.85 F7200 ; Z hop return
G1 E0.5 F2100 ; Un-retract
G1 X82.7106 Y94.22 E0.99515 F6000 ; Print pattern wall
G1 X61.4974 Y115.4332 E0.99515 F6000 ; Print pattern wall
G1 E-0.5 F2100 ; Retract
G1 Z0.95 F7200 ; Z hop
G0 X63.9474 Y73.0068 F7200 ; Move to next pattern
G1 Z0.85 F7200 ; Z hop return
G1 E0.5 F2100 ; Un-retract
M900 K0.005 ; Set linear advance k factor
M117 LA 0.005
G1 X85.1606 Y94.22 E0.99515 F6000 ; Print pattern wall
G1 X63.9474 Y115.4332 E0.99515 F6000 ; Print pattern wall
G1 E-0.5 F2100 ; Retract
G1 Z0.95 F7200 ; Z hop
G0 X64.5231 Y73.0068 F7200 ; Move to start next pattern wall
G1 Z0.85 F7200 ; Z hop return
G1 E0.5 F2100 ; Un-retract
G1 X85.7363 Y94.22 E0.99515 F6000 ; Print pattern wall
G1 X64.5231 Y115.4332 E0.99515 F6000 ; Print pattern wall
G1 E-0.5 F2100 ; Retract
G1 Z0.95 F7200 ; Z hop
G0 X65.0988 Y73.0068 F7200 ; Move to start next pattern wall
G1 Z0.85 F7200 ; Z hop return
G1 E0.5 F2100 ; Un-retract
G1 X86.312 Y94.22 E0.99515 F6000 ; Print pattern wall
G1 X65.0988 Y115.4332 E0.99515 F6000 ; Print pattern wall
G1 E-0.5 F2100 ; Retract
G1 Z0.95 F7200 ; Z hop
G0 X67.5488 Y73.0068 F7200 ; Move to next pattern
G1 Z0.85 F7200 ; Z hop return
G1 E0.5 F2100 ; Un-retract
M900 K0.01 ; Set linear advance k factor
M117 LA 0.01
G1 X88.762 Y94.22 E0.99515 F6000 ; Print pattern wall
G1 X67.5488 Y115.4332 E0.99515 F6000 ; Print pattern wall
G1 E-0.5 F2100 ; Retract
G1 Z0.95 F7200 ; Z hop
G0 X68.1245 Y73.0068 F7200 ; Move to start next pattern wall
G1 Z0.85 F7200 ; Z hop return
G1 E0.5 F2100 ; Un-retract
G1 X89.3377 Y94.22 E0.99515 F6000 ; Print pattern wall
G1 X68.1245 Y115.4332 E0.99515 F6000 ; Print pattern wall
G1 E-0.5 F2100 ; Retract
G1 Z0.95 F7200 ; Z hop
G0 X68.7002 Y73.0068 F7200 ; Move to start next pattern wall
G1 Z0.85 F7200 ; Z hop return
G1 E0.5 F2100 ; Un-retract
G1 X89.9134 Y94.22 E0.99515 F6000 ; Print pattern wall
G1 X68.7002 Y115.4332 E0.99515 F6000 ; Print pattern wall
G1 E-0.5 F2100 ; Retract
G1 Z0.95 F7200 ; Z hop
G0 X71.1502 Y73.0068 F7200 ; Move to next pattern
G1 Z0.85 F7200 ; Z hop return
G1 E0.5 F2100 ; Un-retract
M900 K0.015 ; Set linear advance k factor
M117 LA 0.015
G1 X92.3634 Y94.22 E0.99515 F6000 ; Print pattern wall
G1 X71.1502 Y115.4332 E0.99515 F6000 ; Print pattern wall
G1 E-0.5 F2100 ; Retract
G1 Z0.95 F7200 ; Z hop
G0 X71.7259 Y73.0068 F7200 ; Move to start next pattern wall
G1 Z0.85 F7200 ; Z hop return
G1 E0.5 F2100 ; Un-retract
G1 X92.9391 Y94.22 E0.99515 F6000 ; Print pattern wall
G1 X71.7259 Y115.4332 E0.99515 F6000 ; Print pattern wall
G1 E-0.5 F2100 ; Retract
G1 Z0.95 F7200 ; Z hop
G0 X72.3016 Y73.0068 F7200 ; Move to start next pattern wall
G1 Z0.85 F7200 ; Z hop return
G1 E0.5 F2100 ; Un-retract
G1 X93.5148 Y94.22 E0.99515 F6000 ; Print pattern wall
G1 X72.3016 Y115.4332 E0.99515 F6000 ; Print pattern wall
G1 E-0.5 F2100 ; Retract
G1 Z0.95 F7200 ; Z hop
G0 X74.7516 Y73.0068 F7200 ; Move to next pattern
G1 Z0.85 F7200 ; Z hop return
G1 E0.5 F2100 ; Un-retract
M900 K0.02 ; Set linear advance k factor
M117 LA 0.02
G1 X95.9648 Y94.22 E0.99515 F6000 ; Print pattern wall
G1 X74.7516 Y115.4332 E0.99515 F6000 ; Print pattern wall
G1 E-0.5 F2100 ; Retract
G1 Z0.95 F7200 ; Z hop
G0 X75.3273 Y73.0068 F7200 ; Move to start next pattern wall
G1 Z0.85 F7200 ; Z hop return
G1 E0.5 F2100 ; Un-retract
G1 X96.5405 Y94.22 E0.99515 F6000 ; Print pattern wall
G1 X75.3273 Y115.4332 E0.99515 F6000 ; Print pattern wall
G1 E-0.5 F2100 ; Retract
G1 Z0.95 F7200 ; Z hop
G0 X75.903 Y73.0068 F7200 ; Move to start next pattern wall
G1 Z0.85 F7200 ; Z hop return
G1 E0.5 F2100 ; Un-retract
G1 X97.1162 Y94.22 E0.99515 F6000 ; Print pattern wall
G1 X75.903 Y115.4332 E0.99515 F6000 ; Print pattern wall
G1 E-0.5 F2100 ; Retract
G1 Z0.95 F7200 ; Z hop
G0 X78.353 Y73.0068 F7200 ; Move to next pattern
G1 Z0.85 F7200 ; Z hop return
G1 E0.5 F2100 ; Un-retract
M900 K0.025 ; Set linear advance k factor
M117 LA 0.025
G1 X99.5662 Y94.22 E0.99515 F6000 ; Print pattern wall
G1 X78.353 Y115.4332 E0.99515 F6000 ; Print pattern wall
G1 E-0.5 F2100 ; Retract
G1 Z0.95 F7200 ; Z hop
G0 X78.9287 Y73.0068 F7200 ; Move to start next pattern wall
G1 Z0.85 F7200 ; Z hop return
G1 E0.5 F2100 ; Un-retract
G1 X100.1419 Y94.22 E0.99515 F6000 ; Print pattern wall
G1 X78.9287 Y115.4332 E0.99515 F6000 ; Print pattern wall
G1 E-0.5 F2100 ; Retract
G1 Z0.95 F7200 ; Z hop
G0 X79.5044 Y73.0068 F7200 ; Move to start next pattern wall
G1 Z0.85 F7200 ; Z hop return
G1 E0.5 F2100 ; Un-retract
G1 X100.7176 Y94.22 E0.99515 F6000 ; Print pattern wall
G1 X79.5044 Y115.4332 E0.99515 F6000 ; Print pattern wall
G1 E-0.5 F2100 ; Retract
G1 Z0.95 F7200 ; Z hop
G0 X81.9544 Y73.0068 F7200 ; Move to next pattern
G1 Z0.85 F7200 ; Z hop return
G1 E0.5 F2100 ; Un-retract
M900 K0.03 ; Set linear advance k factor
M117 LA 0.03
G1 X103.1676 Y94.22 E0.99515 F6000 ; Print pattern wall
G1 X81.9544 Y115.4332 E0.99515 F6000 ; Print pattern wall
G1 E-0.5 F2100 ; Retract
G1 Z0.95 F7200 ; Z hop
G0 X82.5301 Y73.0068 F7200 ; Move to start next pattern wall
G1 Z0.85 F7200 ; Z hop return
G1 E0.5 F2100 ; Un-retract
G1 X103.7433 Y94.22 E0.99515 F6000 ; Print pattern wall
G1 X82.5301 Y115.4332 E0.99515 F6000 ; Print pattern wall
G1 E-0.5 F2100 ; Retract
G1 Z0.95 F7200 ; Z hop
G0 X83.1058 Y73.0068 F7200 ; Move to start next pattern wall
G1 Z0.85 F7200 ; Z hop return
G1 E0.5 F2100 ; Un-retract
G1 X104.319 Y94.22 E0.99515 F6000 ; Print pattern wall
G1 X83.1058 Y115.4332 E0.99515 F6000 ; Print pattern wall
G1 E-0.5 F2100 ; Retract
G1 Z0.95 F7200 ; Z hop
G0 X85.5558 Y73.0068 F7200 ; Move to next pattern
G1 Z0.85 F7200 ; Z hop return
G1 E0.5 F2100 ; Un-retract
M900 K0.035 ; Set linear advance k factor
M117 LA 0.035
G1 X106.769 Y94.22 E0.99515 F6000 ; Print pattern wall
G1 X85.5558 Y115.4332 E0.99515 F6000 ; Print pattern wall
G1 E-0.5 F2100 ; Retract
G1 Z0.95 F7200 ; Z hop
G0 X86.1315 Y73.0068 F7200 ; Move to start next pattern wall
G1 Z0.85 F7200 ; Z hop return
G1 E0.5 F2100 ; Un-retract
G1 X107.3447 Y94.22 E0.99515 F6000 ; Print pattern wall
G1 X86.1315 Y115.4332 E0.99515 F6000 ; Print pattern wall
G1 E-0.5 F2100 ; Retract
G1 Z0.95 F7200 ; Z hop
G0 X86.7072 Y73.0068 F7200 ; Move to start next pattern wall
G1 Z0.85 F7200 ; Z hop return
G1 E0.5 F2100 ; Un-retract
G1 X107.9204 Y94.22 E0.99515 F6000 ; Print pattern wall
G1 X86.7072 Y115.4332 E0.99515 F6000 ; Print pattern wall
G1 E-0.5 F2100 ; Retract
G1 Z0.95 F7200 ; Z hop
G0 X89.1572 Y73.0068 F7200 ; Move to next pattern
G1 Z0.85 F7200 ; Z hop return
G1 E0.5 F2100 ; Un-retract
M900 K0.04 ; Set linear advance k factor
M117 LA 0.04
G1 X110.3704 Y94.22 E0.99515 F6000 ; Print pattern wall
G1 X89.1572 Y115.4332 E0.99515 F6000 ; Print pattern wall
G1 E-0.5 F2100 ; Retract
G1 Z0.95 F7200 ; Z hop
G0 X89.7329 Y73.0068 F7200 ; Move to start next pattern wall
G1 Z0.85 F7200 ; Z hop return
G1 E0.5 F2100 ; Un-retract
G1 X110.9461 Y94.22 E0.99515 F6000 ; Print pattern wall
G1 X89.7329 Y115.4332 E0.99515 F6000 ; Print pattern wall
G1 E-0.5 F2100 ; Retract
G1 Z0.95 F7200 ; Z hop
G0 X90.3086 Y73.0068 F7200 ; Move to start next pattern wall
G1 Z0.85 F7200 ; Z hop return
G1 E0.5 F2100 ; Un-retract
G1 X111.5218 Y94.22 E0.99515 F6000 ; Print pattern wall
G1 X90.3086 Y115.4332 E0.99515 F6000 ; Print pattern wall
G1 E-0.5 F2100 ; Retract
G1 Z0.95 F7200 ; Z hop
G0 X92.7586 Y73.0068 F7200 ; Move to next pattern
G1 Z0.85 F7200 ; Z hop return
G1 E0.5 F2100 ; Un-retract
M900 K0.045 ; Set linear advance k factor
M117 LA 0.045
G1 X113.9718 Y94.22 E0.99515 F6000 ; Print pattern wall
G1 X92.7586 Y115.4332 E0.99515 F6000 ; Print pattern wall
G1 E-0.5 F2100 ; Retract
G1 Z0.95 F7200 ; Z hop
G0 X93.3343 Y73.0068 F7200 ; Move to start next pattern wall
G1 Z0.85 F7200 ; Z hop return
G1 E0.5 F2100 ; Un-retract
G1 X114.5475 Y94.22 E0.99515 F6000 ; Print pattern wall
G1 X93.3343 Y115.4332 E0.99515 F6000 ; Print pattern wall
G1 E-0.5 F2100 ; Retract
G1 Z0.95 F7200 ; Z hop
G0 X93.91 Y73.0068 F7200 ; Move to start next pattern wall
G1 Z0.85 F7200 ; Z hop return
G1 E0.5 F2100 ; Un-retract
G1 X115.1232 Y94.22 E0.99515 F6000 ; Print pattern wall
G1 X93.91 Y115.4332 E0.99515 F6000 ; Print pattern wall
G1 E-0.5 F2100 ; Retract
G1 Z0.95 F7200 ; Z hop
G0 X96.36 Y73.0068 F7200 ; Move to next pattern
G1 Z0.85 F7200 ; Z hop return
G1 E0.5 F2100 ; Un-retract
M900 K0.05 ; Set linear advance k factor
M117 LA 0.05
G1 X117.5732 Y94.22 E0.99515 F6000 ; Print pattern wall
G1 X96.36 Y115.4332 E0.99515 F6000 ; Print pattern wall
G1 E-0.5 F2100 ; Retract
G1 Z0.95 F7200 ; Z hop
G0 X96.9357 Y73.0068 F7200 ; Move to start next pattern wall
G1 Z0.85 F7200 ; Z hop return
G1 E0.5 F2100 ; Un-retract
G1 X118.1489 Y94.22 E0.99515 F6000 ; Print pattern wall
G1 X96.9357 Y115.4332 E0.99515 F6000 ; Print pattern wall
G1 E-0.5 F2100 ; Retract
G1 Z0.95 F7200 ; Z hop
G0 X97.5113 Y73.0068 F7200 ; Move to start next pattern wall
G1 Z0.85 F7200 ; Z hop return
G1 E0.5 F2100 ; Un-retract
G1 X118.7246 Y94.22 E0.99515 F6000 ; Print pattern wall
G1 X97.5113 Y115.4332 E0.99515 F6000 ; Print pattern wall
G1 E-0.5 F2100 ; Retract
G1 Z0.95 F7200 ; Z hop
G0 X99.9613 Y73.0068 F7200 ; Move to next pattern
G1 Z0.85 F7200 ; Z hop return
G1 E0.5 F2100 ; Un-retract
M900 K0.055 ; Set linear advance k factor
M117 LA 0.055
G1 X121.1746 Y94.22 E0.99515 F6000 ; Print pattern wall
G1 X99.9613 Y115.4332 E0.99515 F6000 ; Print pattern wall
G1 E-0.5 F2100 ; Retract
G1 Z0.95 F7200 ; Z hop
G0 X100.537 Y73.0068 F7200 ; Move to start next pattern wall
G1 Z0.85 F7200 ; Z hop return
G1 E0.5 F2100 ; Un-retract
G1 X121.7502 Y94.22 E0.99515 F6000 ; Print pattern wall
G1 X100.537 Y115.4332 E0.99515 F6000 ; Print pattern wall
G1 E-0.5 F2100 ; Retract
G1 Z0.95 F7200 ; Z hop
G0 X101.1127 Y73.0068 F7200 ; Move to start next pattern wall
G1 Z0.85 F7200 ; Z hop return
G1 E0.5 F2100 ; Un-retract
G1 X122.3259 Y94.22 E0.99515 F6000 ; Print pattern wall
G1 X101.1127 Y115.4332 E0.99515 F6000 ; Print pattern wall
G1 E-0.5 F2100 ; Retract
G1 Z0.95 F7200 ; Z hop
G0 X103.5627 Y73.0068 F7200 ; Move to next pattern
G1 Z0.85 F7200 ; Z hop return
G1 E0.5 F2100 ; Un-retract
M900 K0.06 ; Set linear advance k factor
M117 LA 0.06
G1 X124.7759 Y94.22 E0.99515 F6000 ; Print pattern wall
G1 X103.5627 Y115.4332 E0.99515 F6000 ; Print pattern wall
G1 E-0.5 F2100 ; Retract
G1 Z0.95 F7200 ; Z hop
G0 X104.1384 Y73.0068 F7200 ; Move to start next pattern wall
G1 Z0.85 F7200 ; Z hop return
G1 E0.5 F2100 ; Un-retract
G1 X125.3516 Y94.22 E0.99515 F6000 ; Print pattern wall
G1 X104.1384 Y115.4332 E0.99515 F6000 ; Print pattern wall
G1 E-0.5 F2100 ; Retract
G1 Z0.95 F7200 ; Z hop
G0 X104.7141 Y73.0068 F7200 ; Move to start next pattern wall
G1 Z0.85 F7200 ; Z hop return
G1 E0.5 F2100 ; Un-retract
G1 X125.9273 Y94.22 E0.99515 F6000 ; Print pattern wall
G1 X104.7141 Y115.4332 E0.99515 F6000 ; Print pattern wall
G1 E-0.5 F2100 ; Retract
G1 Z0.95 F7200 ; Z hop
G0 X107.1641 Y73.0068 F7200 ; Move to next pattern
G1 Z0.85 F7200 ; Z hop return
G1 E0.5 F2100 ; Un-retract
M900 K0.065 ; Set linear advance k factor
M117 LA 0.065
G1 X128.3773 Y94.22 E0.99515 F6000 ; Print pattern wall
G1 X107.1641 Y115.4332 E0.99515 F6000 ; Print pattern wall
G1 E-0.5 F2100 ; Retract
G1 Z0.95 F7200 ; Z hop
G0 X107.7398 Y73.0068 F7200 ; Move to start next pattern wall
G1 Z0.85 F7200 ; Z hop return
G1 E0.5 F2100 ; Un-retract
G1 X128.953 Y94.22 E0.99515 F6000 ; Print pattern wall
G1 X107.7398 Y115.4332 E0.99515 F6000 ; Print pattern wall
G1 E-0.5 F2100 ; Retract
G1 Z0.95 F7200 ; Z hop
G0 X108.3155 Y73.0068 F7200 ; Move to start next pattern wall
G1 Z0.85 F7200 ; Z hop return
G1 E0.5 F2100 ; Un-retract
G1 X129.5287 Y94.22 E0.99515 F6000 ; Print pattern wall
G1 X108.3155 Y115.4332 E0.99515 F6000 ; Print pattern wall
G1 E-0.5 F2100 ; Retract
G1 Z0.95 F7200 ; Z hop
G0 X110.7655 Y73.0068 F7200 ; Move to next pattern
G1 Z0.85 F7200 ; Z hop return
G1 E0.5 F2100 ; Un-retract
M900 K0.07 ; Set linear advance k factor
M117 LA 0.07
G1 X131.9787 Y94.22 E0.99515 F6000 ; Print pattern wall
G1 X110.7655 Y115.4332 E0.99515 F6000 ; Print pattern wall
G1 E-0.5 F2100 ; Retract
G1 Z0.95 F7200 ; Z hop
G0 X111.3412 Y73.0068 F7200 ; Move to start next pattern wall
G1 Z0.85 F7200 ; Z hop return
G1 E0.5 F2100 ; Un-retract
G1 X132.5544 Y94.22 E0.99515 F6000 ; Print pattern wall
G1 X111.3412 Y115.4332 E0.99515 F6000 ; Print pattern wall
G1 E-0.5 F2100 ; Retract
G1 Z0.95 F7200 ; Z hop
G0 X111.9169 Y73.0068 F7200 ; Move to start next pattern wall
G1 Z0.85 F7200 ; Z hop return
G1 E0.5 F2100 ; Un-retract
G1 X133.1301 Y94.22 E0.99515 F6000 ; Print pattern wall
G1 X111.9169 Y115.4332 E0.99515 F6000 ; Print pattern wall
G1 E-0.5 F2100 ; Retract
G1 Z0.95 F7200 ; Z hop
G0 X114.3669 Y73.0068 F7200 ; Move to next pattern
G1 Z0.85 F7200 ; Z hop return
G1 E0.5 F2100 ; Un-retract
M900 K0.075 ; Set linear advance k factor
M117 LA 0.075
G1 X135.5801 Y94.22 E0.99515 F6000 ; Print pattern wall
G1 X114.3669 Y115.4332 E0.99515 F6000 ; Print pattern wall
G1 E-0.5 F2100 ; Retract
G1 Z0.95 F7200 ; Z hop
G0 X114.9426 Y73.0068 F7200 ; Move to start next pattern wall
G1 Z0.85 F7200 ; Z hop return
G1 E0.5 F2100 ; Un-retract
G1 X136.1558 Y94.22 E0.99515 F6000 ; Print pattern wall
G1 X114.9426 Y115.4332 E0.99515 F6000 ; Print pattern wall
G1 E-0.5 F2100 ; Retract
G1 Z0.95 F7200 ; Z hop
G0 X115.5183 Y73.0068 F7200 ; Move to start next pattern wall
G1 Z0.85 F7200 ; Z hop return
G1 E0.5 F2100 ; Un-retract
G1 X136.7315 Y94.22 E0.99515 F6000 ; Print pattern wall
G1 X115.5183 Y115.4332 E0.99515 F6000 ; Print pattern wall
G1 E-0.5 F2100 ; Retract
G1 Z0.95 F7200 ; Z hop
G0 X117.9683 Y73.0068 F7200 ; Move to next pattern
G1 Z0.85 F7200 ; Z hop return
G1 E0.5 F2100 ; Un-retract
M900 K0.08 ; Set linear advance k factor
M117 LA 0.08
G1 X139.1815 Y94.22 E0.99515 F6000 ; Print pattern wall
G1 X117.9683 Y115.4332 E0.99515 F6000 ; Print pattern wall
G1 E-0.5 F2100 ; Retract
G1 Z0.95 F7200 ; Z hop
G0 X118.544 Y73.0068 F7200 ; Move to start next pattern wall
G1 Z0.85 F7200 ; Z hop return
G1 E0.5 F2100 ; Un-retract
G1 X139.7572 Y94.22 E0.99515 F6000 ; Print pattern wall
G1 X118.544 Y115.4332 E0.99515 F6000 ; Print pattern wall
G1 E-0.5 F2100 ; Retract
G1 Z0.95 F7200 ; Z hop
G0 X119.1197 Y73.0068 F7200 ; Move to start next pattern wall
G1 Z0.85 F7200 ; Z hop return
G1 E0.5 F2100 ; Un-retract
G1 X140.3329 Y94.22 E0.99515 F6000 ; Print pattern wall
G1 X119.1197 Y115.4332 E0.99515 F6000 ; Print pattern wall
M900 K0 ; Set linear advance k factor back to start value
M117 LA 0
G1 E-0.5 F2100 ; Retract
G1 Z0.95 F7200 ; Z hop
G0 Z5.85 F7200 ; Z raise
M104 S0 ; Turn off hotend
M140 S0 ; Turn off bed
M107    ; Turn off fan
;
; End G-code
;
M501 ; Load settings from EEPROM (to restore previous values)
;
; FINISH
;
